;FLAVOR:Marlin
;TIME:3284
;Filament used: 3.5971m
;Layer height: 0.2
;Generated with Cura_SteamEngine 3.6.0
M140 S60
M105
M190 S60
M104 S220
M105
M109 S220
M82 ;absolute extrusion mode
G21 ;metric values
G90 ;absolute positioning
M82 ;set extruder to absolute mode
M107 ;start with the fan off
G28 X0 Y0 ;move X/Y to min endstops
G28 Z0 ;move Z to min endstops
G1 Z15.0 F9000 ;move the platform down 15mm
G92 E0 ;zero the extruded length
G1 F200 E3 ;extrude 3mm of feed stock
G92 E0 ;zero the extruded length again
G1 F9000
;Put printing message on LCD screen
M117 Printing...
G92 E0
G1 F1500 E-6.5
;LAYER_COUNT:131
;LAYER:0
M107
G0 F3600 X84.184 Y79.993 Z0.3
;TYPE:SUPPORT
G1 F1500 E0
G1 F1800 X86.91 Y78.012 E0.16812
G1 X87.074 Y78.037 E0.1764
G1 X87.589 Y78.748 E0.2202
G1 X85.585 Y80.087 E0.34044
G1 X84.684 Y80.878 E0.40026
G1 X84.157 Y80.156 E0.44485
G1 X84.184 Y79.993 E0.45309
G0 F3600 X84.433 Y80.01
G1 F1800 X85.429 Y80.01 E0.50278
G0 F3600 X85.344 Y80.086
G1 F1800 X85.344 Y79.347 E0.53965
G1 F1500 E-5.96035
G0 F3600 X86.014 Y80.125
G0 X86.042 Y80.158
G0 X88.924 Y83.499
G0 X88.952 Y83.532
G0 X92.212 Y87.311
G1 F1500 E0.53965
G1 F1800 X94.168 Y86.214 E0.65154
G1 X96.491 Y85.407 E0.77423
G1 X98.859 Y84.99 E0.89418
G1 X101.141 Y84.99 E1.00803
G1 X103.509 Y85.407 E1.12799
G1 X105.832 Y86.214 E1.25068
G1 X107.788 Y87.311 E1.36257
G1 X109.684 Y88.85 E1.4844
G1 X111.215 Y90.577 E1.59954
G1 X112.471 Y92.632 E1.7197
G1 X113.349 Y94.806 E1.83667
G1 X113.841 Y97.074 E1.95245
G1 X113.949 Y99.411 E2.06917
G1 X113.616 Y102.032 E2.20098
G1 X112.981 Y104.067 E2.30734
G1 X111.886 Y106.212 E2.42749
G1 X110.511 Y108.085 E2.54341
G1 X108.788 Y109.741 E2.66264
G1 X106.736 Y111.132 E2.78632
G1 X104.632 Y112.077 E2.90139
G1 X102.459 Y112.643 E3.01342
G1 X100 Y112.847 E3.13652
G1 X97.541 Y112.643 E3.25962
G1 X95.368 Y112.077 E3.37165
G1 X93.264 Y111.132 E3.48672
G1 X91.212 Y109.741 E3.6104
G1 X89.489 Y108.085 E3.72963
G1 X88.114 Y106.212 E3.84555
G1 X87.019 Y104.067 E3.9657
G1 X86.384 Y102.032 E4.07205
G1 X86.051 Y99.411 E4.20387
G1 X86.159 Y97.074 E4.32058
G1 X86.651 Y94.806 E4.43637
G1 X87.529 Y92.632 E4.55334
G1 X88.785 Y90.577 E4.6735
G1 X90.316 Y88.85 E4.78864
G1 X92.212 Y87.311 E4.91047
G0 F3600 X94.722 Y91.607
G1 F1800 X93.301 Y92.886 E5.00585
G1 X92.199 Y94.411 E5.09972
G1 X91.461 Y96.079 E5.19072
G1 X91.049 Y97.988 E5.28815
G1 X91.049 Y99.811 E5.3791
G1 X91.462 Y101.71 E5.47606
G1 X92.202 Y103.399 E5.56806
G1 X93.303 Y104.923 E5.66185
G1 X94.71 Y106.187 E5.75622
G1 X96.358 Y107.136 E5.85109
G1 X98.134 Y107.71 E5.94421
G1 X100 Y107.905 E6.03781
G1 X101.866 Y107.71 E6.13141
G1 X103.642 Y107.136 E6.22453
G1 X105.29 Y106.187 E6.31941
G1 X106.697 Y104.923 E6.41377
G1 X107.798 Y103.399 E6.50757
G1 X108.538 Y101.71 E6.59957
G1 X108.951 Y99.811 E6.69652
G1 X108.951 Y97.988 E6.78747
G1 X108.539 Y96.079 E6.88491
G1 X107.801 Y94.411 E6.9759
G1 X106.699 Y92.886 E7.06977
G1 X105.278 Y91.607 E7.16515
G1 X103.641 Y90.664 E7.25941
G1 X101.864 Y90.09 E7.35257
G1 X100 Y89.895 E7.44607
G1 X98.136 Y90.09 E7.53958
G1 X96.359 Y90.664 E7.63274
G1 X94.722 Y91.607 E7.72699
G0 F3600 X93.345 Y92.632
G1 F1800 X93.345 Y86.858 E8.01506
G0 F3600 X91.604 Y88.011
G1 F1800 X108.397 Y88.011 E8.85287
G0 F3600 X109.347 Y88.783
G1 F1800 X109.347 Y108.981 E9.86055
G0 F3600 X108.965 Y109.347
G1 F1800 X91.034 Y109.347 E10.75513
G0 F3600 X90.678 Y109.004
G1 F1800 X90.678 Y88.761 E11.76506
G0 F3600 X88.912 Y90.678
G1 F1800 X96.013 Y90.678 E12.11933
G0 F3600 X96.012 Y90.68
G1 F1800 X96.012 Y85.742 E12.36568
G0 F3600 X97.772 Y85.344
G1 F1800 X102.229 Y85.344 E12.58805
G0 F3600 X101.346 Y85.189
G1 F1800 X101.346 Y89.875 E12.82183
G0 F3600 X98.679 Y89.873
G1 F1800 X98.679 Y85.184 E13.05577
G0 F3600 X104.013 Y85.752
G1 F1800 X104.013 Y90.693 E13.30227
G0 F3600 X103.986 Y90.678
G1 F1800 X111.089 Y90.678 E13.65664
G0 F3600 X112.014 Y92.192
G1 F1800 X112.014 Y105.609 E14.32602
G0 F3600 X112.828 Y104.013
G1 F1800 X107.553 Y104.013 E14.58919
G0 F3600 X106.68 Y105.152
G1 F1800 X106.68 Y110.978 E14.87985
G0 F3600 X104.237 Y112.014
G1 F1800 X95.762 Y112.014 E15.30267
G0 F3600 X96.012 Y112.079
G1 F1800 X96.012 Y107.122 E15.54998
G0 F3600 X95.246 Y106.68
G1 F1800 X88.656 Y106.68 E15.87875
G0 F3600 X88.011 Y105.657
G1 F1800 X88.011 Y92.15 E16.55262
G0 F3600 X87.414 Y93.345
G1 F1800 X92.771 Y93.345 E16.81988
G0 F3600 X91.316 Y96.012
G1 F1800 X86.553 Y96.012 E17.05751
G0 F3600 X86.246 Y98.679
G1 F1800 X90.889 Y98.679 E17.28915
G0 F3600 X91.219 Y101.346
G1 F1800 X86.457 Y101.346 E17.52673
G0 F3600 X87.171 Y104.013
G1 F1800 X92.448 Y104.013 E17.79
G0 F3600 X93.345 Y105.176
G1 F1800 X93.345 Y110.994 E18.08026
G0 F3600 X98.679 Y112.577
G1 F1800 X98.679 Y107.928 E18.3122
G0 F3600 X101.346 Y107.925
G1 F1800 X101.346 Y112.576 E18.54424
G0 F3600 X104.013 Y112.073
G1 F1800 X104.013 Y107.107 E18.79199
G0 F3600 X104.755 Y106.68
G1 F1800 X111.343 Y106.68 E19.12067
G0 F3600 X113.542 Y101.346
G1 F1800 X108.782 Y101.346 E19.35815
G0 F3600 X109.111 Y98.679
G1 F1800 X113.755 Y98.679 E19.58984
G0 F3600 X113.448 Y96.012
G1 F1800 X108.683 Y96.012 E19.82756
G0 F3600 X107.228 Y93.345
G1 F1800 X112.587 Y93.345 E20.09492
G0 F3600 X106.68 Y92.654
G1 F1800 X106.68 Y86.873 E20.38334
G1 F1500 E13.88334
G0 F3600 X81.295 Y101.918
G0 X81.257 Y101.94
G0 X77.277 Y104.299
G0 X77.239 Y104.321
G0 X76.993 Y104.468
G1 F1500 E20.38334
G1 F1800 X77.104 Y105.032 E20.41202
G1 X78.082 Y107.907 E20.56352
G1 X77.277 Y108.176 E20.60587
G1 X77.127 Y108.102 E20.61421
G1 X76.091 Y104.898 E20.78221
G1 X76.169 Y104.748 E20.79064
G1 X76.993 Y104.468 E20.83406
G0 F3600 X77.343 Y106.232
G1 F1800 X77.343 Y107.985 E20.92152
G0 F3600 X77.496 Y106.68
G1 F1800 X76.836 Y106.68 E20.95445
G1 F1500 E14.45445
G0 F3600 X81.389 Y113.192
G0 X83.414 Y115.499
G0 X85.724 Y117.524
G0 X88.279 Y119.23
G0 X91.032 Y120.583
G0 X93.644 Y121.469
G0 X98.2 Y122.486
G1 F1500 E20.95445
G1 F1800 X100.006 Y122.6 E21.04473
G1 X101.8 Y122.485 E21.13442
G1 X101.8 Y123.378 E21.17897
G1 X101.684 Y123.494 E21.18715
G1 X98.316 Y123.494 E21.35518
G1 X98.2 Y123.378 E21.36337
G1 X98.2 Y122.486 E21.40787
G0 F3600 X98.359 Y122.682
G1 F1800 X98.771 Y122.682 E21.42842
G0 F3600 X98.679 Y122.677
G1 F1800 X98.679 Y123.334 E21.4612
G0 F3600 X101.231 Y122.682
G1 F1800 X101.639 Y122.682 E21.48156
G0 F3600 X101.346 Y122.674
G1 F1800 X101.346 Y123.334 E21.51448
G1 F1500 E15.01448
G0 F3600 X109.002 Y120.569
G0 X111.754 Y119.209
G0 X114.298 Y117.506
G0 X116.604 Y115.482
G0 X118.621 Y113.179
G0 X120.002 Y111.111
G0 X121.92 Y107.905
G1 F1500 E21.51448
G1 F1800 X122.893 Y105.04 E21.66544
G1 X123.003 Y104.481 E21.69386
G1 X123.838 Y104.755 E21.7377
G1 X123.91 Y104.898 E21.74569
G1 X122.871 Y108.106 E21.91393
G1 X122.73 Y108.177 E21.9218
G1 X121.92 Y107.905 E21.96443
G0 F3600 X122.682 Y107.991
G1 F1800 X122.682 Y106.158 E22.05588
G0 F3600 X122.505 Y106.68
G1 F1800 X123.164 Y106.68 E22.08876
G1 F1500 E15.58876
G0 F3600 X123.466 Y98.943
G0 X123.267 Y95.862
G0 X122.658 Y92.805
G0 X121.669 Y89.902
G0 X120.308 Y87.145
G0 X118.773 Y84.852
G0 X115.313 Y80.871
G1 F1500 E22.08876
G1 F1800 X114.441 Y80.106 E22.14663
G1 X112.409 Y78.748 E22.26856
G1 X112.932 Y78.039 E22.31252
G1 X113.096 Y78.014 E22.32079
G1 X115.82 Y79.992 E22.48874
G1 X115.843 Y80.15 E22.49671
G1 X115.313 Y80.871 E22.54135
G0 F3600 X115.572 Y80.01
G1 F1800 X114.574 Y80.01 E22.59114
G0 F3600 X114.681 Y80.103
G1 F1800 X114.681 Y79.363 E22.62806
G1 F1500 E16.12806
;MESH:bikeLightHolder.stl
G0 F3600 X111.816 Y78.635
G0 X111.105 Y79.702
G0 X102.824 Y76.982
G0 X102.836 Y76.883
;TYPE:WALL-INNER
G1 F1500 E22.62806
G1 F1800 X105.75 Y77.459 E22.77625
G1 X108.502 Y78.395 E22.92128
G1 X111.115 Y79.685 E23.06666
G1 X113.525 Y81.297 E23.21131
G1 X115.698 Y83.206 E23.35562
G1 X117.605 Y85.379 E23.49986
G1 X119.212 Y87.78 E23.644
G1 X120.502 Y90.393 E23.78938
G1 X121.438 Y93.144 E23.93436
G1 X122.013 Y96.033 E24.08132
G1 X122.199 Y98.839 E24.22161
G1 X122.2 Y98.927 E24.22601
G1 X122.013 Y101.767 E24.368
G1 X121.44 Y104.653 E24.51479
G1 X120.517 Y107.374 E24.65814
G1 X119.225 Y109.999 E24.80411
G1 X117.612 Y112.412 E24.94891
G1 X115.703 Y114.59 E25.0934
G1 X113.515 Y116.51 E25.23863
G1 X111.119 Y118.113 E25.38246
G1 X108.511 Y119.401 E25.52757
G1 X105.717 Y120.349 E25.67477
G1 X102.859 Y120.913 E25.82011
G1 X100 Y121.098 E25.96304
G1 X97.147 Y120.915 E26.10567
G1 X94.26 Y120.344 E26.25249
G1 X91.509 Y119.41 E26.39744
G1 X88.905 Y118.128 E26.54224
G1 X86.491 Y116.515 E26.68709
G1 X84.306 Y114.598 E26.8321
G1 X82.389 Y112.414 E26.97709
G1 X80.776 Y110 E27.12193
G1 X79.493 Y107.397 E27.26671
G1 X78.554 Y104.633 E27.41235
G1 X77.986 Y101.762 E27.55836
G1 X77.801 Y98.901 E27.7014
G1 X77.988 Y96.024 E27.84523
G1 X78.552 Y93.173 E27.99023
G1 X79.483 Y90.424 E28.13503
G1 X80.765 Y87.818 E28.27992
G1 X82.377 Y85.402 E28.42482
G1 X84.288 Y83.221 E28.56949
G1 X86.506 Y81.275 E28.7167
G1 X88.89 Y79.683 E28.85972
G1 X91.478 Y78.405 E29.00372
G1 X94.267 Y77.454 E29.15073
G1 X97.142 Y76.886 E29.29694
G1 X99.972 Y76.702 E29.43843
G1 X102.836 Y76.883 E29.5816
G0 F3600 X102.824 Y76.982
G0 X94.298 Y79.479
G0 X91.592 Y80.488
G0 X89.057 Y81.872
G0 X86.745 Y83.602
G0 X84.702 Y85.645
G0 X82.972 Y87.957
G0 X81.727 Y90.238
G0 X80.522 Y93.181
G0 X80.617 Y93.209
G1 F1800 X80 Y96.064 E29.72732
G1 X79.8 Y98.864 E29.86737
G1 X79.802 Y99.032 E29.87575
G1 X80.002 Y101.75 E30.01172
G1 X80.617 Y104.591 E30.15674
G1 X81.624 Y107.292 E30.30056
G1 X83.005 Y109.822 E30.44436
G1 X84.732 Y112.129 E30.58813
G1 X86.771 Y114.168 E30.73199
G1 X89.078 Y115.895 E30.87577
G1 X91.608 Y117.276 E31.01957
G1 X94.309 Y118.283 E31.16338
G1 X97.156 Y118.899 E31.30871
G1 X99.922 Y119.099 E31.44706
G1 X100.085 Y119.099 E31.4552
G1 X102.847 Y118.899 E31.59335
G1 X105.691 Y118.283 E31.73853
G1 X108.392 Y117.276 E31.88235
G1 X110.922 Y115.895 E32.02615
G1 X113.229 Y114.168 E32.16992
G1 X115.268 Y112.129 E32.31378
G1 X116.995 Y109.822 E32.45756
G1 X118.376 Y107.292 E32.60136
G1 X119.383 Y104.591 E32.74517
G1 X120 Y101.737 E32.89085
G1 X120.199 Y99.006 E33.02746
G1 X120.199 Y98.827 E33.03639
G1 X119.999 Y96.054 E33.1751
G1 X119.383 Y93.209 E33.32032
G1 X118.376 Y90.508 E33.46414
G1 X116.995 Y87.978 E33.60794
G1 X115.268 Y85.671 E33.75171
G1 X113.229 Y83.632 E33.89558
G1 X110.922 Y81.905 E34.03935
G1 X108.392 Y80.524 E34.18315
G1 X105.691 Y79.517 E34.32697
G1 X102.844 Y78.901 E34.47229
G1 X100.083 Y78.701 E34.6104
G1 X99.875 Y78.702 E34.62077
G1 X97.152 Y78.901 E34.75699
G1 X94.309 Y79.517 E34.90212
G1 X91.608 Y80.524 E35.04593
G1 X89.078 Y81.905 E35.18973
G1 X86.771 Y83.632 E35.33351
G1 X84.732 Y85.671 E35.47737
G1 X83.005 Y87.978 E35.62114
G1 X81.624 Y90.508 E35.76494
G1 X80.617 Y93.209 E35.90876
G0 F3600 X81.002 Y93.322
;TYPE:WALL-OUTER
G1 F1800 X80.397 Y96.121 E36.05163
G1 X80.2 Y98.875 E36.18938
G1 X80.202 Y99.014 E36.19631
G1 X80.399 Y101.693 E36.33033
G1 X81.002 Y104.478 E36.47249
G1 X81.989 Y107.125 E36.61343
G1 X83.342 Y109.605 E36.75438
G1 X85.035 Y111.866 E36.8953
G1 X87.034 Y113.865 E37.03634
G1 X89.295 Y115.558 E37.17726
G1 X91.775 Y116.911 E37.3182
G1 X94.422 Y117.898 E37.45914
G1 X97.213 Y118.502 E37.60161
G1 X99.936 Y118.699 E37.73781
G1 X100.071 Y118.699 E37.74455
G1 X102.79 Y118.502 E37.88056
G1 X105.578 Y117.898 E38.02288
G1 X108.225 Y116.911 E38.16382
G1 X110.705 Y115.558 E38.30476
G1 X112.966 Y113.865 E38.44568
G1 X114.965 Y111.866 E38.58672
G1 X116.658 Y109.605 E38.72764
G1 X118.011 Y107.125 E38.86858
G1 X118.998 Y104.478 E39.00952
G1 X119.603 Y101.68 E39.15234
G1 X119.799 Y98.991 E39.28685
G1 X119.799 Y98.841 E39.29434
G1 X119.602 Y96.111 E39.43089
G1 X118.998 Y93.322 E39.57326
G1 X118.011 Y90.675 E39.7142
G1 X116.658 Y88.195 E39.85515
G1 X114.965 Y85.934 E39.99607
G1 X112.966 Y83.935 E40.13711
G1 X110.705 Y82.242 E40.27803
G1 X108.225 Y80.889 E40.41897
G1 X105.578 Y79.902 E40.55991
G1 X102.787 Y79.298 E40.70238
G1 X100.07 Y79.101 E40.83828
G1 X99.891 Y79.102 E40.84721
G1 X97.209 Y79.298 E40.98138
G1 X94.422 Y79.902 E41.12365
G1 X91.775 Y80.889 E41.26459
G1 X89.295 Y82.242 E41.40553
G1 X87.034 Y83.935 E41.54645
G1 X85.035 Y85.934 E41.68749
G1 X83.342 Y88.195 E41.82841
G1 X81.989 Y90.675 E41.96936
G1 X81.002 Y93.322 E42.1103
G0 F3600 X80.96 Y93.517
G0 X80.472 Y93.41
G0 X81.588 Y90.492
G0 X82.972 Y87.957
G0 X84.702 Y85.645
G0 X86.745 Y83.602
G0 X89.057 Y81.872
G0 X91.592 Y80.488
G0 X93.783 Y79.671
G0 X102.824 Y76.982
G0 X102.885 Y76.486
G1 F1800 X105.86 Y77.073 E42.26158
G1 X108.655 Y78.024 E42.40888
G1 X111.31 Y79.335 E42.5566
G1 X113.775 Y80.984 E42.70456
G1 X115.982 Y82.922 E42.8511
G1 X117.919 Y85.13 E42.99764
G1 X119.562 Y87.585 E43.14501
G1 X120.873 Y90.24 E43.29274
G1 X121.824 Y93.035 E43.44003
G1 X122.41 Y95.982 E43.58994
G1 X122.599 Y98.835 E43.73259
G1 X122.6 Y98.941 E43.73788
G1 X122.41 Y101.818 E43.88172
G1 X121.826 Y104.762 E44.03146
G1 X120.888 Y107.527 E44.17713
G1 X119.573 Y110.199 E44.32571
G1 X117.93 Y112.657 E44.47321
G1 X115.987 Y114.874 E44.62028
G1 X113.765 Y116.823 E44.76774
G1 X111.314 Y118.463 E44.91487
G1 X108.664 Y119.772 E45.06233
G1 X105.827 Y120.735 E45.2118
G1 X102.908 Y121.311 E45.36024
G1 X100 Y121.499 E45.50562
G1 X97.096 Y121.312 E45.6508
G1 X94.152 Y120.73 E45.80052
G1 X91.356 Y119.781 E45.94783
G1 X88.705 Y118.476 E46.09525
G1 X86.246 Y116.833 E46.24279
G1 X84.022 Y114.882 E46.39039
G1 X82.072 Y112.659 E46.53792
G1 X80.428 Y110.2 E46.68549
G1 X79.122 Y107.55 E46.83288
G1 X78.168 Y104.741 E46.98089
G1 X77.589 Y101.813 E47.12979
G1 X77.4 Y98.901 E47.27538
G1 X77.591 Y95.973 E47.42177
G1 X78.166 Y93.067 E47.56956
G1 X79.113 Y90.269 E47.71693
G1 X80.417 Y87.618 E47.86432
G1 X82.059 Y85.157 E48.01192
G1 X84.004 Y82.937 E48.15918
G1 X86.261 Y80.957 E48.30897
G1 X88.69 Y79.335 E48.45468
G1 X91.325 Y78.034 E48.6013
G1 X94.157 Y77.068 E48.75058
G1 X97.093 Y76.489 E48.89988
G1 X99.971 Y76.301 E49.04377
G1 X102.885 Y76.486 E49.18944
G0 F3600 X103.081 Y76.524
G0 X102.983 Y77.013
G0 X102.796 Y77.272
;TYPE:SKIN
G1 F1800 X105.648 Y77.836 E49.33448
G1 X108.353 Y78.756 E49.47703
G1 X110.917 Y80.021 E49.61967
G1 X113.288 Y81.608 E49.76201
G1 X115.421 Y83.483 E49.90369
G1 X117.294 Y85.616 E50.04531
G1 X118.876 Y87.979 E50.18719
G1 X120.141 Y90.542 E50.32978
G1 X121.061 Y93.246 E50.47228
G1 X121.624 Y96.074 E50.61614
G1 X121.81 Y98.902 E50.75753
G1 X121.624 Y101.726 E50.89873
G1 X121.063 Y104.551 E51.04242
G1 X120.155 Y107.228 E51.18345
G1 X118.891 Y109.799 E51.32638
G1 X117.301 Y112.175 E51.46901
G1 X115.426 Y114.313 E51.61089
G1 X113.278 Y116.199 E51.7535
G1 X110.92 Y117.777 E51.89505
G1 X108.362 Y119.04 E52.03738
G1 X105.616 Y119.972 E52.18205
G1 X102.818 Y120.524 E52.32433
G1 X100 Y120.706 E52.46522
G1 X97.188 Y120.526 E52.6058
G1 X94.361 Y119.967 E52.74957
G1 X91.655 Y119.048 E52.89214
G1 X89.105 Y117.794 E53.03391
G1 X86.728 Y116.204 E53.17659
G1 X84.583 Y114.321 E53.31899
G1 X82.7 Y112.177 E53.46135
G1 X81.11 Y109.799 E53.60406
G1 X79.855 Y107.251 E53.74577
G1 X78.931 Y104.531 E53.88908
G1 X78.375 Y101.721 E54.03199
G1 X78.193 Y98.901 E54.17298
G1 X78.377 Y96.065 E54.31476
G1 X78.929 Y93.274 E54.4567
G1 X79.843 Y90.576 E54.59882
G1 X81.105 Y88.009 E54.74153
G1 X82.685 Y85.641 E54.88355
G1 X84.565 Y83.498 E55.02578
G1 X86.743 Y81.586 E55.17037
G1 X89.088 Y80.019 E55.31108
G1 X91.625 Y78.767 E55.45222
G1 X94.371 Y77.83 E55.59698
G1 X97.183 Y77.275 E55.73997
G1 X99.972 Y77.094 E55.87941
G1 X102.796 Y77.272 E56.02058
G0 F3600 X102.9 Y78.514
G1 F1800 X100.096 Y78.311 E56.16084
G1 X99.86 Y78.312 E56.17261
G1 X97.096 Y78.514 E56.31088
G1 X94.199 Y79.142 E56.45877
G1 X91.446 Y80.169 E56.60536
G1 X88.867 Y81.576 E56.75193
G1 X86.515 Y83.336 E56.89849
G1 X84.436 Y85.415 E57.04517
G1 X82.676 Y87.767 E57.19173
G1 X81.269 Y90.346 E57.3383
G1 X80.242 Y93.099 E57.48489
G1 X79.613 Y96.009 E57.63342
G1 X79.41 Y98.852 E57.77562
G1 X79.412 Y99.049 E57.78545
G1 X79.615 Y101.806 E57.92337
G1 X80.242 Y104.701 E58.07115
G1 X81.269 Y107.454 E58.21775
G1 X82.676 Y110.033 E58.36432
G1 X84.436 Y112.385 E58.51087
G1 X86.515 Y114.464 E58.65756
G1 X88.867 Y116.224 E58.80412
G1 X91.446 Y117.631 E58.95068
G1 X94.199 Y118.658 E59.09728
G1 X97.1 Y119.286 E59.24536
