;FLAVOR:Marlin
;TIME:6818
;Filament used: 7.18888m
;Layer height: 0.2
;Generated with Cura_SteamEngine 3.6.0
M140 S60
M105
M190 S60
M104 S220
M105
M109 S220
M82 ;absolute extrusion mode
G21 ;metric values
G90 ;absolute positioning
M82 ;set extruder to absolute mode
M107 ;start with the fan off
G28 X0 Y0 ;move X/Y to min endstops
G28 Z0 ;move Z to min endstops
G1 Z15.0 F9000 ;move the platform down 15mm
G92 E0 ;zero the extruded length
G1 F200 E3 ;extrude 3mm of feed stock
G92 E0 ;zero the extruded length again
G1 F9000
;Put printing message on LCD screen
M117 Printing...
G92 E0
G1 F1500 E-6.5
;LAYER_COUNT:90
;LAYER:0
M107
G0 F3600 X59.34 Y39.738 Z0.3
;TYPE:SUPPORT
G1 F1500 E0
G1 F1800 X61.04 Y39.738 E0.08481
G1 X61.04 Y43.238 E0.25943
G1 X59.34 Y43.238 E0.34424
G1 X59.34 Y39.738 E0.51886
G0 F3600 X59.5 Y40.005
G1 F1800 X60.88 Y40.005 E0.58771
G0 F3600 X60.88 Y42.672
G1 F1800 X59.5 Y42.672 E0.65656
G1 F1500 E-5.84344
G0 F3600 X59.491 Y43.509
G0 X59.491 Y43.553
G0 X59.458 Y47.07
G0 X59.457 Y47.15
G0 X59.345 Y59.125
G0 X59.344 Y59.205
G0 X59.311 Y62.723
G0 X59.311 Y62.767
G0 X59.309 Y63.04
G1 F1500 E0.65656
G1 F1800 X61.009 Y63.04 E0.74137
G1 X61.009 Y66.54 E0.91598
G1 X59.309 Y66.54 E1.0008
G1 X59.309 Y63.04 E1.17541
G0 F3600 X59.468 Y64.008
G1 F1800 X60.848 Y64.008 E1.24426
G1 F1500 E-5.25574
G0 F3600 X60.92 Y66.809
G0 X60.92 Y66.853
G0 X61.011 Y70.375
G0 X61.013 Y70.455
G0 X61.319 Y82.374
G0 X61.321 Y82.454
G0 X61.411 Y85.975
G0 X61.411 Y86.019
G0 X61.42 Y86.291
G1 F1500 E1.24426
G1 F1800 X61.42 Y89.791 E1.41888
G1 X59.72 Y89.791 E1.50369
G1 X59.72 Y86.291 E1.67831
G1 X61.42 Y86.291 E1.76312
G0 F3600 X61.259 Y88.011
G1 F1800 X59.879 Y88.011 E1.83197
G1 F1500 E-4.66803
G0 F3600 X61.69 Y87.953
G0 X61.734 Y87.953
G0 X115.705 Y86.3
G0 X115.749 Y86.3
G0 X116.02 Y86.291
G1 F1500 E1.83197
G1 F1800 X117.72 Y86.291 E1.91678
G1 X117.72 Y89.791 E2.0914
G1 X116.02 Y89.791 E2.17621
G1 X116.02 Y86.291 E2.35083
G0 F3600 X117.348 Y86.451
G1 F1800 X117.348 Y89.631 E2.50948
G0 F3600 X117.56 Y88.011
G1 F1800 X116.18 Y88.011 E2.57833
G1 F1500 E-3.92167
G0 F3600 X116.125 Y86.02
G0 X116.125 Y85.976
G0 X116.032 Y82.455
G0 X116.029 Y82.375
G0 X115.712 Y70.454
G0 X115.71 Y70.374
G0 X115.617 Y66.853
G0 X115.617 Y66.809
G0 X115.609 Y66.54
G1 F1500 E2.57833
G1 F1800 X115.609 Y63.04 E2.75294
G1 X117.309 Y63.04 E2.83775
G1 X117.309 Y66.54 E3.01237
G1 X115.609 Y66.54 E3.09718
G0 F3600 X115.769 Y64.008
G1 F1800 X117.149 Y64.008 E3.16603
G1 F1500 E-3.33397
G0 F3600 X117.16 Y62.768
G0 X117.16 Y62.724
G0 X117.192 Y59.205
G0 X117.193 Y59.125
G0 X117.303 Y47.151
G0 X117.304 Y47.071
G0 X117.336 Y43.552
G0 X117.336 Y43.508
G0 X117.34 Y43.238
G1 F1500 E3.16603
G1 F1800 X115.64 Y43.238 E3.25085
G1 X115.64 Y39.738 E3.42546
G1 X117.34 Y39.738 E3.51027
G1 X117.34 Y43.238 E3.68489
G0 F3600 X117.18 Y42.672
G1 F1800 X115.8 Y42.672 E3.75374
G0 F3600 X115.8 Y40.005
G1 F1800 X117.18 Y40.005 E3.82259
G1 F1500 E-2.67741
;MESH:colSupportVert.stl(2)
G0 F3600 X117.18 Y38.238
G0 X114.07 Y38.168
G0 X114.14 Y38.238
;TYPE:WALL-INNER
G1 F1500 E3.82259
G1 F1800 X114.14 Y44.738 E4.14687
G1 X118.84 Y44.738 E4.38136
G1 X118.84 Y38.238 E4.70564
G1 X114.14 Y38.238 E4.94013
G0 F3600 X114.07 Y38.168
G0 X118.868 Y38.21
G0 X146.91 Y45.818
G0 X146.84 Y45.888
G1 F1800 X57.274 Y45.888 E9.40859
G1 X56.932 Y45.848 E9.42577
G1 X56.631 Y45.743 E9.44168
G1 X56.371 Y45.58 E9.45699
G1 X56.147 Y45.356 E9.47279
G1 X55.982 Y45.094 E9.48824
G1 X55.879 Y44.801 E9.50373
G1 X55.84 Y44.449 E9.5214
G1 X55.84 Y38.527 E9.81685
G1 X55.879 Y38.174 E9.83457
G1 X55.982 Y37.881 E9.85006
G1 X56.148 Y37.617 E9.86562
G1 X56.369 Y37.396 E9.88122
G1 X56.633 Y37.23 E9.89677
G1 X56.927 Y37.127 E9.91232
G1 X57.279 Y37.088 E9.92999
G1 X146.84 Y37.088 E14.3982
G1 X146.84 Y33.527 E14.57586
G1 X146.879 Y33.174 E14.59358
G1 X146.982 Y32.881 E14.60907
G1 X147.148 Y32.617 E14.62463
G1 X147.369 Y32.396 E14.64022
G1 X147.633 Y32.23 E14.65578
G1 X147.927 Y32.127 E14.67133
G1 X148.279 Y32.088 E14.68899
G1 X150.64 Y32.088 E14.80678
G1 X150.64 Y50.888 E15.74472
G1 X148.274 Y50.888 E15.86276
G1 X147.932 Y50.848 E15.87994
G1 X147.631 Y50.743 E15.89584
G1 X147.369 Y50.579 E15.91126
G1 X147.148 Y50.358 E15.92686
G1 X146.982 Y50.094 E15.94242
G1 X146.879 Y49.801 E15.95791
G1 X146.84 Y49.449 E15.97558
G1 X146.84 Y45.888 E16.15324
G0 F3600 X146.91 Y45.818
G0 X114.112 Y44.766
G0 X62.568 Y38.21
G0 X57.77 Y38.168
G0 X57.84 Y38.238
G1 F1800 X57.84 Y44.738 E16.47752
G1 X62.54 Y44.738 E16.71201
G1 X62.54 Y38.238 E17.03629
G1 X57.84 Y38.238 E17.27078
G0 F3600 X58.24 Y38.638
;TYPE:WALL-OUTER
G1 F1800 X58.24 Y44.338 E17.55515
G1 X62.14 Y44.338 E17.74972
G1 X62.14 Y38.638 E18.0341
G1 X58.24 Y38.638 E18.22867
G0 F3600 X58.24 Y38.838
G0 X57.74 Y38.838
G0 X57.812 Y38.21
G0 X59.16 Y38.21
G0 X114.04 Y38.638
G0 X114.54 Y38.638
G1 F1800 X114.54 Y44.338 E18.51304
G1 X118.44 Y44.338 E18.70762
G1 X118.44 Y38.638 E18.99199
G1 X114.54 Y38.638 E19.18656
G0 F3600 X114.54 Y38.838
G0 X114.04 Y38.838
G0 X114.112 Y38.21
G0 X118.868 Y38.21
G0 X146.44 Y45.788
G0 X146.44 Y46.288
G1 F1800 X57.254 Y46.288 E23.63607
G1 X56.839 Y46.24 E23.65691
G1 X56.456 Y46.106 E23.67716
G1 X56.12 Y45.895 E23.69695
G1 X55.832 Y45.607 E23.71727
G1 X55.621 Y45.271 E23.73707
G1 X55.486 Y44.888 E23.75733
G1 X55.44 Y44.475 E23.77806
G1 X55.44 Y38.501 E24.0761
G1 X55.486 Y38.087 E24.09688
G1 X55.621 Y37.704 E24.11714
G1 X55.833 Y37.366 E24.13705
G1 X56.118 Y37.081 E24.15716
G1 X56.456 Y36.869 E24.17706
G1 X56.84 Y36.734 E24.19737
G1 X57.253 Y36.688 E24.2181
G1 X146.44 Y36.688 E28.66766
G1 X146.44 Y33.501 E28.82666
G1 X146.486 Y33.087 E28.84744
G1 X146.621 Y32.704 E28.8677
G1 X146.833 Y32.366 E28.88761
G1 X147.118 Y32.081 E28.90771
G1 X147.456 Y31.869 E28.92762
G1 X147.84 Y31.734 E28.94793
G1 X148.253 Y31.688 E28.96866
G1 X151.04 Y31.688 E29.1077
G1 X151.04 Y51.288 E30.08555
G1 X148.254 Y51.288 E30.22455
G1 X147.839 Y51.24 E30.24539
G1 X147.456 Y51.106 E30.26563
G1 X147.118 Y50.894 E30.28554
G1 X146.833 Y50.609 E30.30565
G1 X146.621 Y50.271 E30.32555
G1 X146.486 Y49.888 E30.34581
G1 X146.44 Y49.475 E30.36654
G1 X146.44 Y46.288 E30.52554
G0 F3600 X146.24 Y46.288
G0 X146.24 Y45.788
G0 X147.23 Y45.498
;TYPE:SKIN
G1 F1800 X57.301 Y45.498 E35.01212
G1 X57.018 Y45.465 E35.02633
G1 X56.799 Y45.388 E35.03792
G1 X56.613 Y45.272 E35.04885
G1 X56.457 Y45.116 E35.05986
G1 X56.335 Y44.923 E35.07125
G1 X56.262 Y44.715 E35.08225
G1 X56.23 Y44.424 E35.09685
G1 X56.23 Y38.552 E35.38981
G1 X56.262 Y38.26 E35.40446
G1 X56.336 Y38.05 E35.41557
G1 X56.456 Y37.859 E35.42683
G1 X56.611 Y37.704 E35.43776
G1 X56.802 Y37.584 E35.44901
G1 X57.013 Y37.51 E35.46017
G1 X57.304 Y37.478 E35.47478
G1 X147.23 Y37.478 E39.9612
G1 X147.23 Y33.552 E40.15707
G1 X147.262 Y33.26 E40.17173
G1 X147.336 Y33.05 E40.18283
G1 X147.456 Y32.859 E40.19409
G1 X147.611 Y32.704 E40.20502
G1 X147.802 Y32.584 E40.21628
G1 X148.013 Y32.51 E40.22743
G1 X148.304 Y32.478 E40.24204
G1 X150.25 Y32.478 E40.33913
G1 X150.25 Y50.498 E41.23815
G1 X148.301 Y50.498 E41.33538
G1 X148.017 Y50.465 E41.34965
G1 X147.803 Y50.39 E41.36096
G1 X147.608 Y50.268 E41.37244
G1 X147.456 Y50.116 E41.38316
G1 X147.336 Y49.925 E41.39441
G1 X147.262 Y49.715 E41.40552
G1 X147.23 Y49.424 E41.42013
G1 X147.23 Y45.498 E41.616
G0 F3600 X119.23 Y45.128
G1 F1800 X119.23 Y37.848 E41.9792
G1 X113.75 Y37.848 E42.2526
G1 X113.75 Y45.128 E42.6158
G1 X119.23 Y45.128 E42.8892
G0 F3600 X62.93 Y45.128
G1 F1800 X62.93 Y37.848 E43.2524
G1 X57.45 Y37.848 E43.52579
G1 X57.45 Y45.128 E43.88899
G1 X62.93 Y45.128 E44.16239
G0 F3600 X57.181 Y45.302
G1 F1800 X56.423 Y44.544 E44.21587
G0 F3600 X56.408 Y43.963
G1 F1800 X57.269 Y44.824 E44.27662
G0 F3600 X57.269 Y44.258
G1 F1800 X56.408 Y43.397 E44.33737
G0 F3600 X56.408 Y42.832
G1 F1800 X57.269 Y43.692 E44.39808
G0 F3600 X57.269 Y43.127
G1 F1800 X56.408 Y42.266 E44.45883
G0 F3600 X56.408 Y41.7
G1 F1800 X57.269 Y42.561 E44.51958
G0 F3600 X57.269 Y41.995
G1 F1800 X56.408 Y41.135 E44.58029
G0 F3600 X56.408 Y40.569
G1 F1800 X57.269 Y41.43 E44.64104
G0 F3600 X57.269 Y40.864
G1 F1800 X56.408 Y40.003 E44.70179
G0 F3600 X56.408 Y39.438
G1 F1800 X57.269 Y40.298 E44.7625
G0 F3600 X57.269 Y39.733
G1 F1800 X56.408 Y38.872 E44.82325
G0 F3600 X56.434 Y38.332
G1 F1800 X57.269 Y39.167 E44.88216
G0 F3600 X57.269 Y38.601
G1 F1800 X56.617 Y37.949 E44.92817
G0 F3600 X56.955 Y37.722
G1 F1800 X57.269 Y38.035 E44.95029
G0 F3600 X63.109 Y38.219
G1 F1800 X70.207 Y45.317 E45.45109
G0 F3600 X70.773 Y45.317
G1 F1800 X63.114 Y37.658 E45.99147
G0 F3600 X63.679 Y37.658
G1 F1800 X71.339 Y45.317 E46.53189
G0 F3600 X71.904 Y45.317
G1 F1800 X64.245 Y37.658 E47.07227
G0 F3600 X64.811 Y37.658
G1 F1800 X72.47 Y45.317 E47.61266
G0 F3600 X73.036 Y45.317
G1 F1800 X65.376 Y37.658 E48.15308
G0 F3600 X65.942 Y37.658
G1 F1800 X73.602 Y45.317 E48.6935
G0 F3600 X74.167 Y45.317
G1 F1800 X66.508 Y37.658 E49.23388
G0 F3600 X67.074 Y37.658
G1 F1800 X74.733 Y45.317 E49.77426
G0 F3600 X75.299 Y45.317
G1 F1800 X67.639 Y37.658 E50.31468
G0 F3600 X68.205 Y37.658
G1 F1800 X75.864 Y45.317 E50.85507
G0 F3600 X76.43 Y45.317
G1 F1800 X68.771 Y37.658 E51.39545
G0 F3600 X69.336 Y37.658
G1 F1800 X76.996 Y45.317 E51.93587
G0 F3600 X77.561 Y45.317
G1 F1800 X69.902 Y37.658 E52.47625
G0 F3600 X70.468 Y37.658
G1 F1800 X78.127 Y45.317 E53.01664
G0 F3600 X78.693 Y45.317
G1 F1800 X71.033 Y37.658 E53.55706
G0 F3600 X71.599 Y37.658
G1 F1800 X79.258 Y45.317 E54.09744
G0 F3600 X79.824 Y45.317
G1 F1800 X72.165 Y37.658 E54.63782
G0 F3600 X72.73 Y37.658
G1 F1800 X80.39 Y45.317 E55.17824
G0 F3600 X80.955 Y45.317
G1 F1800 X73.296 Y37.658 E55.71863
G0 F3600 X73.862 Y37.658
G1 F1800 X81.521 Y45.317 E56.25901
G0 F3600 X82.087 Y45.317
G1 F1800 X74.427 Y37.658 E56.79943
G0 F3600 X74.993 Y37.658
G1 F1800 X82.653 Y45.317 E57.33985
G0 F3600 X83.218 Y45.317
G1 F1800 X75.559 Y37.658 E57.88023
G0 F3600 X76.124 Y37.658
G1 F1800 X83.784 Y45.317 E58.42065
G0 F3600 X84.35 Y45.317
G1 F1800 X76.69 Y37.658 E58.96107
G0 F3600 X77.256 Y37.658
G1 F1800 X84.915 Y45.317 E59.50145
G0 F3600 X85.481 Y45.317
G1 F1800 X77.822 Y37.658 E60.04184
G0 F3600 X78.387 Y37.658
G1 F1800 X86.047 Y45.317 E60.58226
G0 F3600 X86.612 Y45.317
G1 F1800 X78.953 Y37.658 E61.12264
G0 F3600 X79.519 Y37.658
G1 F1800 X87.178 Y45.317 E61.66303
G0 F3600 X87.744 Y45.317
G1 F1800 X80.084 Y37.658 E62.20344
G0 F3600 X80.65 Y37.658
G1 F1800 X88.309 Y45.317 E62.74383
G0 F3600 X88.875 Y45.317
G1 F1800 X81.216 Y37.658 E63.28421
G0 F3600 X81.781 Y37.658
G1 F1800 X89.441 Y45.317 E63.82463
G0 F3600 X90.006 Y45.317
G1 F1800 X82.347 Y37.658 E64.36501
G0 F3600 X82.913 Y37.658
G1 F1800 X90.572 Y45.317 E64.9054
G0 F3600 X91.138 Y45.317
G1 F1800 X83.478 Y37.658 E65.44582
G0 F3600 X84.044 Y37.658
G1 F1800 X91.703 Y45.317 E65.9862
G0 F3600 X92.269 Y45.317
G1 F1800 X84.61 Y37.658 E66.52659
G0 F3600 X85.175 Y37.658
G1 F1800 X92.835 Y45.317 E67.067
G0 F3600 X93.401 Y45.317
G1 F1800 X85.741 Y37.658 E67.60742
G0 F3600 X86.307 Y37.658
G1 F1800 X93.966 Y45.317 E68.14781
G0 F3600 X94.532 Y45.317
G1 F1800 X86.873 Y37.658 E68.68819
G0 F3600 X87.438 Y37.658
G1 F1800 X95.098 Y45.317 E69.22861
G0 F3600 X95.663 Y45.317
G1 F1800 X88.004 Y37.658 E69.76899
G0 F3600 X88.57 Y37.658
G1 F1800 X96.229 Y45.317 E70.30938
G0 F3600 X96.795 Y45.317
G1 F1800 X89.135 Y37.658 E70.8498
G0 F3600 X89.701 Y37.658
G1 F1800 X97.36 Y45.317 E71.39018
G0 F3600 X97.926 Y45.317
G1 F1800 X90.267 Y37.658 E71.93056
G0 F3600 X90.832 Y37.658
G1 F1800 X98.492 Y45.317 E72.47098
G0 F3600 X99.057 Y45.317
G1 F1800 X91.398 Y37.658 E73.01137
G0 F3600 X91.964 Y37.658
G1 F1800 X99.623 Y45.317 E73.55175
G0 F3600 X100.189 Y45.317
G1 F1800 X92.529 Y37.658 E74.09217
G0 F3600 X93.095 Y37.658
G1 F1800 X100.754 Y45.317 E74.63255
G0 F3600 X101.32 Y45.317
G1 F1800 X93.661 Y37.658 E75.17294
G0 F3600 X94.226 Y37.658
G1 F1800 X101.886 Y45.317 E75.71336
G0 F3600 X102.451 Y45.317
G1 F1800 X94.792 Y37.658 E76.25374
G0 F3600 X95.358 Y37.658
G1 F1800 X103.017 Y45.317 E76.79412
G0 F3600 X103.583 Y45.317
G1 F1800 X95.923 Y37.658 E77.33454
G0 F3600 X96.489 Y37.658
G1 F1800 X104.149 Y45.317 E77.87496
G0 F3600 X104.714 Y45.317
G1 F1800 X97.055 Y37.658 E78.41535
G0 F3600 X97.621 Y37.658
G1 F1800 X105.28 Y45.317 E78.95573
G0 F3600 X105.846 Y45.317
G1 F1800 X98.186 Y37.658 E79.49615
G0 F3600 X98.752 Y37.658
G1 F1800 X106.411 Y45.317 E80.03653
G0 F3600 X106.977 Y45.317
G1 F1800 X99.318 Y37.658 E80.57692
G0 F3600 X99.883 Y37.658
G1 F1800 X107.543 Y45.317 E81.11734
G0 F3600 X108.108 Y45.317
G1 F1800 X100.449 Y37.658 E81.65772
G0 F3600 X101.015 Y37.658
G1 F1800 X108.674 Y45.317 E82.1981
G0 F3600 X109.24 Y45.317
G1 F1800 X101.58 Y37.658 E82.73852
G0 F3600 X102.146 Y37.658
G1 F1800 X109.805 Y45.317 E83.27891
G0 F3600 X110.371 Y45.317
G1 F1800 X102.712 Y37.658 E83.81929
G0 F3600 X103.277 Y37.658
G1 F1800 X110.937 Y45.317 E84.35971
G0 F3600 X111.502 Y45.317
G1 F1800 X103.843 Y37.658 E84.90009
G0 F3600 X104.409 Y37.658
G1 F1800 X112.068 Y45.317 E85.44048
G0 F3600 X112.634 Y45.317
G1 F1800 X104.974 Y37.658 E85.9809
G0 F3600 X105.54 Y37.658
G1 F1800 X113.2 Y45.317 E86.52132
G0 F3600 X113.569 Y45.121
G1 F1800 X106.106 Y37.658 E87.04787
G0 F3600 X106.672 Y37.658
G1 F1800 X113.569 Y44.555 E87.53449
G0 F3600 X113.569 Y43.989
G1 F1800 X107.237 Y37.658 E87.98121
G0 F3600 X107.803 Y37.658
G1 F1800 X113.569 Y43.424 E88.38804
G0 F3600 X113.569 Y42.858
G1 F1800 X108.369 Y37.658 E88.75492
G0 F3600 X108.934 Y37.658
G1 F1800 X113.569 Y42.292 E89.08191
G0 F3600 X113.569 Y41.727
G1 F1800 X109.5 Y37.658 E89.369
G0 F3600 X110.066 Y37.658
G1 F1800 X113.569 Y41.161 E89.61616
G0 F3600 X113.569 Y40.595
G1 F1800 X110.631 Y37.658 E89.82341
G0 F3600 X111.197 Y37.658
G1 F1800 X113.569 Y40.03 E89.99077
G0 F3600 X113.569 Y39.464
G1 F1800 X111.763 Y37.658 E90.11819
G0 F3600 X112.328 Y37.658
G1 F1800 X113.569 Y38.898 E90.20572
G0 F3600 X113.569 Y38.332
G1 F1800 X112.894 Y37.658 E90.25331
G0 F3600 X113.46 Y37.658
G1 F1800 X113.569 Y37.767 E90.261
G0 F3600 X119.409 Y37.95
G1 F1800 X126.777 Y45.318 E90.78085
G0 F3600 X127.342 Y45.318
G1 F1800 X119.682 Y37.657 E91.32134
G0 F3600 X120.247 Y37.657
G1 F1800 X127.908 Y45.318 E91.86187
G1 X127.978 Y45.388
G0 F3600 X126.211 Y45.318
G1 F1800 X119.409 Y38.516 E92.34178
G0 F3600 X119.409 Y39.081
G1 F1800 X125.645 Y45.318 E92.7818
G0 F3600 X125.08 Y45.318
G1 F1800 X119.409 Y39.647 E93.18192
G0 F3600 X119.409 Y40.213
G1 F1800 X124.514 Y45.318 E93.54211
G0 F3600 X123.948 Y45.318
G1 F1800 X119.409 Y40.778 E93.86239
G0 F3600 X119.409 Y41.344
G1 F1800 X123.383 Y45.318 E94.14278
G0 F3600 X122.817 Y45.318
G1 F1800 X119.409 Y41.91 E94.38323
G0 F3600 X119.409 Y42.475
G1 F1800 X122.251 Y45.318 E94.58379
G0 F3600 X121.686 Y45.318
G1 F1800 X119.409 Y43.041 E94.74444
G0 F3600 X119.409 Y43.607
G1 F1800 X121.12 Y45.318 E94.86516
G0 F3600 X120.554 Y45.318
G1 F1800 X119.409 Y44.172 E94.94598
G0 F3600 X119.409 Y44.738
G1 F1800 X119.988 Y45.318 E94.98687
G1 X120.058 Y45.388
G0 F3600 X120.813 Y37.657
G1 F1800 X128.474 Y45.318 E95.5274
G0 F3600 X129.039 Y45.318
G1 F1800 X121.379 Y37.657 E96.06789
G0 F3600 X121.944 Y37.657
G1 F1800 X129.605 Y45.318 E96.60841
G0 F3600 X130.171 Y45.318
G1 F1800 X122.51 Y37.657 E97.14893
G0 F3600 X123.076 Y37.657
G1 F1800 X130.736 Y45.318 E97.68942
G0 F3600 X131.302 Y45.318
G1 F1800 X123.641 Y37.657 E98.22995
G0 F3600 X124.207 Y37.657
G1 F1800 X131.868 Y45.318 E98.77047
G0 F3600 X132.434 Y45.318
G1 F1800 X124.773 Y37.657 E99.311
G0 F3600 X125.338 Y37.657
G1 F1800 X132.999 Y45.318 E99.85152
G0 F3600 X133.565 Y45.318
G1 F1800 X125.904 Y37.657 E100.39205
G0 F3600 X126.47 Y37.657
G1 F1800 X134.131 Y45.318 E100.93257
G0 F3600 X134.696 Y45.318
G1 F1800 X127.035 Y37.657 E101.4731
G0 F3600 X127.601 Y37.657
G1 F1800 X135.262 Y45.318 E102.01362
G0 F3600 X135.828 Y45.318
G1 F1800 X128.167 Y37.657 E102.55415
G0 F3600 X128.733 Y37.657
G1 F1800 X136.393 Y45.318 E103.09464
G0 F3600 X136.959 Y45.318
G1 F1800 X129.298 Y37.657 E103.63516
G0 F3600 X129.864 Y37.657
G1 F1800 X137.525 Y45.318 E104.17569
G0 F3600 X138.09 Y45.318
G1 F1800 X130.43 Y37.657 E104.71618
G0 F3600 X130.995 Y37.657
G1 F1800 X138.656 Y45.318 E105.2567
G0 F3600 X139.222 Y45.318
