;FLAVOR:Marlin
;TIME:8398
;Filament used: 8.1432m
;Layer height: 0.2
;Generated with Cura_SteamEngine 3.6.0
M140 S60
M105
M190 S60
M104 S220
M105
M109 S220
M82 ;absolute extrusion mode
G21 ;metric values
G90 ;absolute positioning
M82 ;set extruder to absolute mode
M107 ;start with the fan off
G28 X0 Y0 ;move X/Y to min endstops
G28 Z0 ;move Z to min endstops
G1 Z15.0 F9000 ;move the platform down 15mm
G92 E0 ;zero the extruded length
G1 F200 E3 ;extrude 3mm of feed stock
G92 E0 ;zero the extruded length again
G1 F9000
;Put printing message on LCD screen
M117 Printing...
G92 E0
G1 F1500 E-6.5
;LAYER_COUNT:120
;LAYER:0
M107
;MESH:electronicsHolder.stl
G0 F3600 X69.102 Y64.559 Z0.3
;TYPE:WALL-INNER
G1 F1500 E0
G1 F1800 X69.102 Y63.498 E0.05293
G1 X69.141 Y63.144 E0.0707
G1 X69.243 Y62.856 E0.08594
G1 X69.411 Y62.588 E0.10172
G1 X69.631 Y62.368 E0.11725
G1 X69.899 Y62.2 E0.13303
G1 X70.187 Y62.098 E0.14827
G1 X70.541 Y62.059 E0.16604
G1 X95.102 Y62.059 E1.39139
G1 X95.102 Y58.998 E1.54411
G1 X95.141 Y58.644 E1.56187
G1 X95.243 Y58.356 E1.57712
G1 X95.411 Y58.088 E1.5929
G1 X95.631 Y57.868 E1.60842
G1 X95.899 Y57.7 E1.6242
G1 X96.187 Y57.598 E1.63944
G1 X96.541 Y57.559 E1.65721
G1 X157.463 Y57.559 E4.69662
G1 X157.815 Y57.598 E4.71429
G1 X158.106 Y57.7 E4.72967
G1 X158.372 Y57.868 E4.74537
G1 X158.595 Y58.091 E4.7611
G1 X158.76 Y58.353 E4.77655
G1 X158.863 Y58.646 E4.79205
G1 X158.902 Y58.998 E4.80972
G1 X158.902 Y98.92 E6.80143
G1 X158.863 Y99.272 E6.8191
G1 X158.76 Y99.566 E6.83464
G1 X158.594 Y99.83 E6.8502
G1 X158.373 Y100.051 E6.86579
G1 X158.109 Y100.217 E6.88135
G1 X157.815 Y100.32 E6.89689
G1 X157.463 Y100.359 E6.91456
G1 X43.541 Y100.359 E12.59815
G1 X43.189 Y100.32 E12.61582
G1 X42.896 Y100.217 E12.63132
G1 X42.634 Y100.052 E12.64677
G1 X42.411 Y99.829 E12.6625
G1 X42.243 Y99.563 E12.67819
G1 X42.141 Y99.272 E12.69358
G1 X42.102 Y98.92 E12.71125
G1 X42.102 Y65.998 E14.35373
G1 X42.141 Y65.644 E14.3715
G1 X42.243 Y65.356 E14.38674
G1 X42.411 Y65.088 E14.40252
G1 X42.631 Y64.868 E14.41805
G1 X42.899 Y64.7 E14.43383
G1 X43.187 Y64.598 E14.44907
G1 X43.541 Y64.559 E14.46684
G1 X69.102 Y64.559 E15.74208
G0 F3600 X69.172 Y64.629
G0 X70.832 Y63.789
G0 X70.902 Y63.859
G1 F1800 X70.902 Y68.559 E15.97657
G1 X89.402 Y68.559 E16.89953
G1 X89.402 Y93.859 E18.16176
G1 X70.902 Y93.859 E19.08472
G1 X70.902 Y98.559 E19.31921
G1 X94.102 Y98.559 E20.47666
G1 X94.102 Y63.859 E22.20785
G1 X70.902 Y63.859 E23.3653
G0 F3600 X70.832 Y63.789
G0 X95.13 Y62.087
G0 X97.291 Y59
G0 X97.365 Y59.066
G1 F1800 X96.975 Y59.633 E23.39964
G1 X96.731 Y60.277 E23.434
G1 X96.648 Y60.959 E23.46827
G1 X96.731 Y61.642 E23.5026
G1 X96.975 Y62.286 E23.53696
G1 X97.365 Y62.852 E23.57125
G1 X97.881 Y63.309 E23.60564
G1 X98.49 Y63.628 E23.63994
G1 X99.158 Y63.793 E23.67426
G1 X99.846 Y63.793 E23.70859
G1 X100.514 Y63.628 E23.74292
G1 X101.123 Y63.309 E23.77722
G1 X101.638 Y62.852 E23.81157
G1 X102.03 Y62.286 E23.84592
G1 X102.274 Y61.642 E23.88027
G1 X102.356 Y60.959 E23.91459
G1 X102.274 Y60.277 E23.94886
G1 X102.03 Y59.633 E23.98322
G1 X101.638 Y59.066 E24.01761
G1 X101.123 Y58.61 E24.05193
G1 X100.514 Y58.29 E24.08625
G1 X99.845 Y58.126 E24.12062
G1 X99.159 Y58.126 E24.15484
G1 X98.49 Y58.29 E24.18921
G1 X97.881 Y58.61 E24.22353
G1 X97.365 Y59.066 E24.25788
G0 F3600 X97.291 Y59
G0 X96.94 Y59.615
G0 X96.693 Y60.268
G0 X96.625 Y60.826
G0 X97.291 Y95
G0 X97.365 Y95.066
G1 F1800 X96.975 Y95.633 E24.29222
G1 X96.731 Y96.277 E24.32657
G1 X96.648 Y96.959 E24.36085
G1 X96.731 Y97.642 E24.39518
G1 X96.975 Y98.286 E24.42953
G1 X97.365 Y98.852 E24.46383
G1 X97.881 Y99.309 E24.49821
G1 X98.49 Y99.628 E24.53251
G1 X99.158 Y99.793 E24.56684
G1 X99.846 Y99.793 E24.60117
G1 X100.514 Y99.628 E24.63549
G1 X101.123 Y99.309 E24.66979
G1 X101.638 Y98.852 E24.70414
G1 X102.03 Y98.286 E24.73849
G1 X102.274 Y97.642 E24.77285
G1 X102.356 Y96.959 E24.80717
G1 X102.274 Y96.277 E24.84144
G1 X102.03 Y95.633 E24.8758
G1 X101.638 Y95.066 E24.91019
G1 X101.123 Y94.61 E24.94451
G1 X100.514 Y94.29 E24.97883
G1 X99.845 Y94.126 E25.01319
G1 X99.159 Y94.126 E25.04742
G1 X98.49 Y94.29 E25.08178
G1 X97.881 Y94.61 E25.11611
G1 X97.365 Y95.066 E25.15046
G0 F3600 X97.291 Y95
G0 X97.859 Y94.578
G0 X98.476 Y94.253
G0 X99.087 Y94.104
G0 X153.291 Y95
G0 X153.365 Y95.066
G1 F1800 X152.975 Y95.633 E25.18479
G1 X152.731 Y96.277 E25.21915
G1 X152.648 Y96.959 E25.25343
G1 X152.731 Y97.642 E25.28775
G1 X152.975 Y98.286 E25.32211
G1 X153.365 Y98.852 E25.3564
G1 X153.881 Y99.309 E25.39079
G1 X154.49 Y99.628 E25.42509
G1 X155.158 Y99.793 E25.45942
G1 X155.846 Y99.793 E25.49374
G1 X156.514 Y99.628 E25.52807
G1 X157.123 Y99.309 E25.56237
G1 X157.638 Y98.852 E25.59672
G1 X158.03 Y98.286 E25.63107
G1 X158.274 Y97.642 E25.66543
G1 X158.356 Y96.959 E25.69975
G1 X158.274 Y96.277 E25.73402
G1 X158.03 Y95.633 E25.76838
G1 X157.638 Y95.066 E25.80277
G1 X157.123 Y94.61 E25.83709
G1 X156.514 Y94.29 E25.87141
G1 X155.845 Y94.126 E25.90577
G1 X155.159 Y94.126 E25.94
G1 X154.49 Y94.29 E25.97436
G1 X153.881 Y94.61 E26.00868
G1 X153.365 Y95.066 E26.04304
G0 F3600 X153.291 Y95
G0 X152.608 Y60.959
G0 X152.693 Y60.268
G0 X152.832 Y59.899
G0 X153.291 Y59
G0 X153.365 Y59.066
G1 F1800 X152.975 Y59.633 E26.07737
G1 X152.731 Y60.277 E26.11173
G1 X152.648 Y60.959 E26.14601
G1 X152.731 Y61.642 E26.18033
G1 X152.975 Y62.286 E26.21469
G1 X153.365 Y62.852 E26.24898
G1 X153.881 Y63.309 E26.28337
G1 X154.49 Y63.628 E26.31767
G1 X155.158 Y63.793 E26.352
G1 X155.846 Y63.793 E26.38632
G1 X156.514 Y63.628 E26.42065
G1 X157.123 Y63.309 E26.45495
G1 X157.638 Y62.852 E26.4893
G1 X158.03 Y62.286 E26.52365
G1 X158.274 Y61.642 E26.55801
G1 X158.356 Y60.959 E26.59233
G1 X158.274 Y60.277 E26.6266
G1 X158.03 Y59.633 E26.66096
G1 X157.638 Y59.066 E26.69535
G1 X157.123 Y58.61 E26.72966
G1 X156.514 Y58.29 E26.76399
G1 X155.845 Y58.126 E26.79835
G1 X155.159 Y58.126 E26.83258
G1 X154.49 Y58.29 E26.86694
G1 X153.881 Y58.61 E26.90126
G1 X153.365 Y59.066 E26.93562
G0 F3600 X153.667 Y59.333
;TYPE:WALL-OUTER
G1 F1800 X153.332 Y59.82 E26.96511
G1 X153.122 Y60.373 E26.99462
G1 X153.051 Y60.959 E27.02407
G1 X153.122 Y61.546 E27.05357
G1 X153.332 Y62.099 E27.08308
G1 X153.667 Y62.585 E27.11253
G1 X154.11 Y62.977 E27.14204
G1 X154.633 Y63.251 E27.1715
G1 X155.207 Y63.393 E27.201
G1 X155.797 Y63.393 E27.23043
G1 X156.371 Y63.251 E27.25993
G1 X156.894 Y62.977 E27.28939
G1 X157.337 Y62.585 E27.3189
G1 X157.673 Y62.099 E27.34838
G1 X157.883 Y61.546 E27.37789
G1 X157.953 Y60.959 E27.40738
G1 X157.883 Y60.373 E27.43683
G1 X157.673 Y59.82 E27.46634
G1 X157.337 Y59.333 E27.49586
G1 X156.894 Y58.942 E27.52533
G1 X156.371 Y58.667 E27.55481
G1 X155.797 Y58.526 E27.5843
G1 X155.207 Y58.526 E27.61374
G1 X154.633 Y58.667 E27.64323
G1 X154.11 Y58.942 E27.67271
G1 X153.667 Y59.333 E27.70218
G0 F3600 X153.554 Y59.497
G0 X153.143 Y59.214
G0 X152.693 Y60.268
G0 X152.625 Y60.826
G0 X153.336 Y94.958
G0 X153.667 Y95.333
G1 F1800 X153.332 Y95.82 E27.73167
G1 X153.122 Y96.373 E27.76119
G1 X153.051 Y96.959 E27.79064
G1 X153.122 Y97.546 E27.82013
G1 X153.332 Y98.099 E27.84965
G1 X153.667 Y98.585 E27.87909
G1 X154.11 Y98.977 E27.90861
G1 X154.633 Y99.251 E27.93806
G1 X155.207 Y99.393 E27.96756
G1 X155.797 Y99.393 E27.997
G1 X156.371 Y99.251 E28.0265
G1 X156.894 Y98.977 E28.05596
G1 X157.337 Y98.585 E28.08547
G1 X157.673 Y98.099 E28.11494
G1 X157.883 Y97.546 E28.14446
G1 X157.953 Y96.959 E28.17395
G1 X157.883 Y96.373 E28.20339
G1 X157.673 Y95.82 E28.2329
G1 X157.337 Y95.333 E28.26242
G1 X156.894 Y94.942 E28.2919
G1 X156.371 Y94.667 E28.32138
G1 X155.797 Y94.526 E28.35087
G1 X155.207 Y94.526 E28.3803
G1 X154.633 Y94.667 E28.40979
G1 X154.11 Y94.942 E28.43927
G1 X153.667 Y95.333 E28.46875
G0 F3600 X153.554 Y95.497
G0 X153.143 Y95.214
G0 X99.155 Y94.087
G0 X98.476 Y94.253
G0 X98.127 Y94.436
G0 X97.336 Y94.958
G0 X97.667 Y95.333
G1 F1800 X97.332 Y95.82 E28.49824
G1 X97.122 Y96.373 E28.52775
G1 X97.051 Y96.959 E28.5572
G1 X97.122 Y97.546 E28.5867
G1 X97.332 Y98.099 E28.61621
G1 X97.667 Y98.585 E28.64566
G1 X98.11 Y98.977 E28.67517
G1 X98.633 Y99.251 E28.70463
G1 X99.207 Y99.393 E28.73413
G1 X99.797 Y99.393 E28.76357
G1 X100.371 Y99.251 E28.79307
G1 X100.894 Y98.977 E28.82252
G1 X101.337 Y98.585 E28.85203
G1 X101.673 Y98.099 E28.88151
G1 X101.883 Y97.546 E28.91102
G1 X101.953 Y96.959 E28.94052
G1 X101.883 Y96.373 E28.96996
G1 X101.673 Y95.82 E28.99947
G1 X101.337 Y95.333 E29.02899
G1 X100.894 Y94.942 E29.05847
G1 X100.371 Y94.667 E29.08795
G1 X99.797 Y94.526 E29.11744
G1 X99.207 Y94.526 E29.14687
G1 X98.633 Y94.667 E29.17636
G1 X98.11 Y94.942 E29.20584
G1 X97.667 Y95.333 E29.23532
G0 F3600 X97.554 Y95.497
G0 X97.143 Y95.214
G0 X96.608 Y60.959
G0 X96.693 Y60.268
G0 X96.892 Y59.74
G0 X97.336 Y58.958
G0 X97.667 Y59.333
G1 F1800 X97.332 Y59.82 E29.26481
G1 X97.122 Y60.373 E29.29432
G1 X97.051 Y60.959 E29.32377
G1 X97.122 Y61.546 E29.35327
G1 X97.332 Y62.099 E29.38278
G1 X97.667 Y62.585 E29.41223
G1 X98.11 Y62.977 E29.44174
G1 X98.633 Y63.251 E29.4712
G1 X99.207 Y63.393 E29.5007
G1 X99.797 Y63.393 E29.53013
G1 X100.371 Y63.251 E29.55963
G1 X100.894 Y62.977 E29.58909
G1 X101.337 Y62.585 E29.6186
G1 X101.673 Y62.099 E29.64808
G1 X101.883 Y61.546 E29.67759
G1 X101.953 Y60.959 E29.70708
G1 X101.883 Y60.373 E29.73653
G1 X101.673 Y59.82 E29.76604
G1 X101.337 Y59.333 E29.79556
G1 X100.894 Y58.942 E29.82503
G1 X100.371 Y58.667 E29.85451
G1 X99.797 Y58.526 E29.884
G1 X99.207 Y58.526 E29.91344
G1 X98.633 Y58.667 E29.94293
G1 X98.11 Y58.942 E29.97241
G1 X97.667 Y59.333 E30.00188
G0 F3600 X97.554 Y59.497
G0 X97.143 Y59.214
G0 X95.13 Y62.087
G0 X70.874 Y63.831
G0 X70.802 Y64.259
G0 X71.302 Y64.259
G1 F1800 X71.302 Y68.159 E30.19646
G1 X89.802 Y68.159 E31.11943
G1 X89.802 Y94.259 E32.42156
G1 X71.302 Y94.259 E33.34453
G1 X71.302 Y98.159 E33.5391
G1 X93.702 Y98.159 E34.65664
G1 X93.702 Y64.259 E36.34792
G1 X71.302 Y64.259 E37.46546
G0 F3600 X71.302 Y64.459
G0 X70.802 Y64.459
G0 X69.202 Y64.159
G0 X68.702 Y64.159
G1 F1800 X68.702 Y63.472 E37.49973
G1 X68.748 Y63.059 E37.52047
G1 X68.882 Y62.677 E37.54066
G1 X69.096 Y62.337 E37.56071
G1 X69.38 Y62.053 E37.58074
G1 X69.72 Y61.839 E37.60079
G1 X70.102 Y61.705 E37.62098
G1 X70.515 Y61.659 E37.64171
G1 X94.702 Y61.659 E38.84841
G1 X94.702 Y58.972 E38.98246
G1 X94.748 Y58.559 E39.0032
G1 X94.882 Y58.177 E39.02339
G1 X95.096 Y57.837 E39.04344
G1 X95.38 Y57.553 E39.06347
G1 X95.72 Y57.339 E39.08352
G1 X96.102 Y57.205 E39.10371
G1 X96.515 Y57.159 E39.12444
G1 X157.489 Y57.159 E42.16645
G1 X157.902 Y57.205 E42.18718
G1 X158.283 Y57.339 E42.20733
G1 X158.623 Y57.553 E42.22737
G1 X158.91 Y57.84 E42.24762
G1 X159.121 Y58.176 E42.26742
G1 X159.256 Y58.559 E42.28768
G1 X159.302 Y58.972 E42.30841
G1 X159.302 Y98.946 E44.30272
G1 X159.256 Y99.359 E44.32345
G1 X159.121 Y99.743 E44.34376
G1 X158.909 Y100.081 E44.36367
G1 X158.624 Y100.366 E44.38377
G1 X158.286 Y100.578 E44.40368
G1 X157.902 Y100.713 E44.42399
G1 X157.489 Y100.759 E44.44472
G1 X43.515 Y100.759 E50.13091
G1 X43.102 Y100.713 E50.15164
G1 X42.719 Y100.578 E50.1719
G1 X42.383 Y100.367 E50.19169
G1 X42.096 Y100.08 E50.21194
G1 X41.882 Y99.74 E50.23198
G1 X41.748 Y99.359 E50.25213
G1 X41.702 Y98.946 E50.27287
G1 X41.702 Y65.972 E51.91795
G1 X41.748 Y65.559 E51.93868
G1 X41.882 Y65.177 E51.95887
G1 X42.096 Y64.837 E51.97892
G1 X42.38 Y64.553 E51.99895
G1 X42.72 Y64.339 E52.019
G1 X43.102 Y64.205 E52.03919
G1 X43.515 Y64.159 E52.05993
G1 X68.702 Y64.159 E53.31651
G0 F3600 X68.702 Y63.959
G0 X69.202 Y63.959
G0 X69.492 Y63.523
;TYPE:SKIN
G1 F1800 X69.524 Y63.231 E53.33117
G1 X69.597 Y63.023 E53.34216
G1 X69.719 Y62.83 E53.35355
G1 X69.873 Y62.676 E53.36442
G1 X70.066 Y62.554 E53.37581
G1 X70.274 Y62.481 E53.38681
G1 X70.566 Y62.449 E53.40146
G1 X95.492 Y62.449 E54.64503
G1 X95.492 Y59.023 E54.81595
G1 X95.524 Y58.731 E54.83061
G1 X95.597 Y58.523 E54.8416
G1 X95.719 Y58.33 E54.853
G1 X95.873 Y58.176 E54.86386
G1 X96.066 Y58.054 E54.87525
G1 X96.274 Y57.981 E54.88625
G1 X96.566 Y57.949 E54.90091
G1 X98.301 Y57.949 E54.98746
G1 X97.658 Y58.286 E55.02368
G1 X97.071 Y58.805 E55.06277
G1 X96.627 Y59.451 E55.10188
G1 X96.349 Y60.183 E55.14095
G1 X96.256 Y60.959 E55.17994
G1 X96.349 Y61.736 E55.21898
G1 X96.628 Y62.469 E55.25811
G1 X97.071 Y63.113 E55.29711
G1 X97.658 Y63.633 E55.33623
G1 X98.351 Y63.995 E55.37524
G1 X99.111 Y64.183 E55.4143
G1 X99.893 Y64.183 E55.45331
G1 X100.653 Y63.995 E55.49237
G1 X101.346 Y63.633 E55.53138
G1 X101.932 Y63.113 E55.57046
G1 X102.377 Y62.469 E55.60952
G1 X102.656 Y61.736 E55.64864
G1 X102.748 Y60.959 E55.68768
G1 X102.656 Y60.183 E55.72667
G1 X102.377 Y59.45 E55.76579
G1 X101.932 Y58.805 E55.80489
G1 X101.346 Y58.286 E55.84394
G1 X100.703 Y57.949 E55.88016
G1 X154.301 Y57.949 E58.55418
G1 X153.658 Y58.286 E58.59039
G1 X153.071 Y58.805 E58.62949
G1 X152.627 Y59.451 E58.66859
G1 X152.349 Y60.183 E58.70766
G1 X152.256 Y60.959 E58.74665
G1 X152.349 Y61.736 E58.78569
G1 X152.628 Y62.469 E58.82482
G1 X153.071 Y63.113 E58.86382
G1 X153.658 Y63.633 E58.90294
G1 X154.351 Y63.995 E58.94195
G1 X155.111 Y64.183 E58.98101
G1 X155.893 Y64.183 E59.02002
G1 X156.653 Y63.995 E59.05908
G1 X157.346 Y63.633 E59.09809
G1 X157.932 Y63.113 E59.13717
G1 X158.377 Y62.469 E59.17623
G1 X158.512 Y62.114 E59.19518
G1 X158.512 Y95.805 E60.87603
G1 X158.377 Y95.45 E60.89497
G1 X157.932 Y94.805 E60.93407
G1 X157.346 Y94.286 E60.97312
G1 X156.653 Y93.923 E61.01215
G1 X155.892 Y93.736 E61.05125
G1 X155.112 Y93.736 E61.09016
G1 X154.351 Y93.923 E61.12926
G1 X153.658 Y94.286 E61.16829
G1 X153.071 Y94.805 E61.20738
G1 X152.627 Y95.451 E61.24649
G1 X152.349 Y96.183 E61.28555
G1 X152.256 Y96.959 E61.32454
G1 X152.349 Y97.736 E61.36358
G1 X152.628 Y98.469 E61.40271
G1 X153.071 Y99.113 E61.44171
G1 X153.658 Y99.633 E61.48083
G1 X154.301 Y99.969 E61.51703
G1 X100.703 Y99.969 E64.19105
G1 X101.346 Y99.633 E64.22724
G1 X101.932 Y99.113 E64.26633
G1 X102.377 Y98.469 E64.30538
G1 X102.656 Y97.736 E64.34451
G1 X102.748 Y96.959 E64.38354
G1 X102.656 Y96.183 E64.42253
G1 X102.377 Y95.45 E64.46166
G1 X101.932 Y94.805 E64.50075
G1 X101.346 Y94.286 E64.53981
G1 X100.653 Y93.923 E64.57884
G1 X99.892 Y93.736 E64.61793
G1 X99.112 Y93.736 E64.65685
G1 X98.351 Y93.923 E64.69594
G1 X97.658 Y94.286 E64.73497
G1 X97.071 Y94.805 E64.77406
G1 X96.627 Y95.451 E64.81317
G1 X96.349 Y96.183 E64.85224
G1 X96.256 Y96.959 E64.89123
G1 X96.349 Y97.736 E64.93027
G1 X96.628 Y98.469 E64.9694
G1 X97.071 Y99.113 E65.0084
G1 X97.658 Y99.633 E65.04752
G1 X98.301 Y99.969 E65.08371
G1 X43.566 Y99.969 E67.81446
G1 X43.275 Y99.937 E67.82906
G1 X43.067 Y99.864 E67.84006
G1 X42.874 Y99.742 E67.85145
G1 X42.722 Y99.59 E67.86217
G1 X42.595 Y99.388 E67.87408
G1 X42.524 Y99.186 E67.88476
G1 X42.492 Y98.895 E67.89937
G1 X42.492 Y66.023 E69.53936
G1 X42.524 Y65.731 E69.55401
G1 X42.597 Y65.523 E69.56501
G1 X42.719 Y65.33 E69.5764
G1 X42.873 Y65.176 E69.58727
G1 X43.066 Y65.054 E69.59866
G1 X43.274 Y64.981 E69.60966
G1 X43.566 Y64.949 E69.62431
G1 X69.492 Y64.949 E70.91776
G1 X69.492 Y63.523 E70.98891
G0 F3600 X70.512 Y63.469
G1 F1800 X70.512 Y68.949 E71.26231
G1 X89.012 Y68.949 E72.18527
G1 X89.012 Y93.469 E73.40858
G1 X70.512 Y93.469 E74.33155
G1 X70.512 Y98.949 E74.60495
G1 X94.492 Y98.949 E75.80132
G1 X94.492 Y63.469 E77.57142
G1 X70.512 Y63.469 E78.76779
G0 F3600 X99.85 Y63.832
G0 X156.703 Y57.949
G1 F1800 X157.438 Y57.949 E78.80446
G1 X157.729 Y57.981 E78.81906
G1 X157.934 Y58.053 E78.8299
G1 X158.132 Y58.178 E78.84158
G1 X158.285 Y58.331 E78.85238
G1 X158.407 Y58.524 E78.86377
G1 X158.48 Y58.732 E78.87477
G1 X158.512 Y59.023 E78.88937
G1 X158.512 Y59.805 E78.92839
G1 X158.377 Y59.45 E78.94734
G1 X157.932 Y58.805 E78.98643
G1 X157.346 Y58.286 E79.02548
G1 X156.703 Y57.949 E79.0617
G0 F3600 X157.667 Y59.04
G0 X158.065 Y59.615
G0 X158.312 Y60.268
G0 X158.396 Y60.959
G0 X158.396 Y96.959
G0 X158.312 Y97.651
G0 X158.065 Y98.304
G0 X157.84 Y98.628
G0 X156.703 Y99.969
G1 F1800 X157.346 Y99.633 E79.0979
G1 X157.932 Y99.113 E79.13698
G1 X158.377 Y98.469 E79.17604
G1 X158.512 Y98.114 E79.19499
G1 X158.512 Y98.895 E79.23395
G1 X158.48 Y99.186 E79.24856
