;FLAVOR:Marlin
;TIME:1907
;Filament used: 2.03038m
;Layer height: 0.2
;Generated with Cura_SteamEngine 3.6.0
M140 S60
M105
M190 S60
M104 S220
M105
M109 S220
M82 ;absolute extrusion mode
G21 ;metric values
G90 ;absolute positioning
M82 ;set extruder to absolute mode
M107 ;start with the fan off
G28 X0 Y0 ;move X/Y to min endstops
G28 Z0 ;move Z to min endstops
G1 Z15.0 F9000 ;move the platform down 15mm
G92 E0 ;zero the extruded length
G1 F200 E3 ;extrude 3mm of feed stock
G92 E0 ;zero the extruded length again
G1 F9000
;Put printing message on LCD screen
M117 Printing...
G92 E0
G1 F1500 E-6.5
;LAYER_COUNT:90
;LAYER:0
M107
G0 F3600 X92.9 Y93.4 Z0.3
;TYPE:SUPPORT
G1 F1500 E0
G1 F1800 X99.1 Y93.4 E0.30932
G1 X99.1 Y106.6 E0.96787
G1 X92.9 Y106.6 E1.27719
G1 X92.9 Y93.4 E1.93574
G0 F3600 X93.345 Y93.56
G1 F1800 X93.345 Y106.44 E2.57833
G0 F3600 X93.06 Y104.013
G1 F1800 X98.94 Y104.013 E2.87168
G0 F3600 X98.679 Y106.44
G1 F1800 X98.679 Y93.56 E3.51427
G0 F3600 X98.94 Y96.012
G1 F1800 X93.06 Y96.012 E3.80762
G0 F3600 X93.06 Y98.679
G1 F1800 X98.94 Y98.679 E4.10097
G0 F3600 X98.94 Y101.346
G1 F1800 X93.06 Y101.346 E4.39433
G0 F3600 X96.012 Y106.44
G1 F1800 X96.012 Y93.56 E5.03691
G1 F1500 E-1.46309
;MESH:greenLEDHolder.stl
G0 F3600 X96.012 Y91.9
G0 X91.33 Y91.83
G0 X91.4 Y91.9
;TYPE:WALL-INNER
G1 F1500 E5.03691
G1 F1800 X91.4 Y108.1 E5.84514
G1 X100.6 Y108.1 E6.30413
G1 X100.6 Y91.9 E7.11235
G1 X91.4 Y91.9 E7.57134
G0 F3600 X91.33 Y91.83
G0 X100.67 Y85.67
G0 X100.6 Y85.6
G1 F1800 X100.6 Y84.539 E7.62427
G1 X100.639 Y84.187 E7.64194
G1 X100.742 Y83.893 E7.65748
G1 X100.908 Y83.629 E7.67304
G1 X101.129 Y83.408 E7.68863
G1 X101.393 Y83.242 E7.70419
G1 X101.687 Y83.139 E7.71973
G1 X102.039 Y83.1 E7.7374
G1 X111.4 Y83.1 E8.20442
G1 X111.4 Y116.9 E9.89071
G1 X102.039 Y116.9 E10.35773
G1 X101.687 Y116.861 E10.3754
G1 X101.393 Y116.758 E10.39095
G1 X101.129 Y116.592 E10.4065
G1 X100.908 Y116.371 E10.4221
G1 X100.742 Y116.107 E10.43765
G1 X100.639 Y115.813 E10.4532
G1 X100.6 Y115.461 E10.47087
G1 X100.6 Y114.4 E10.5238
G1 X91.023 Y114.399 E11.0016
G1 X90.461 Y114.333 E11.02983
G1 X89.953 Y114.154 E11.0567
G1 X89.499 Y113.865 E11.08355
G1 X89.122 Y113.486 E11.11022
G1 X88.838 Y113.03 E11.13702
G1 X88.663 Y112.523 E11.16378
G1 X88.6 Y111.968 E11.19165
G1 X88.6 Y88.039 E12.38547
G1 X88.664 Y87.464 E12.41433
G1 X88.842 Y86.959 E12.44105
G1 X89.126 Y86.507 E12.46768
G1 X89.507 Y86.126 E12.49456
G1 X89.959 Y85.842 E12.52119
G1 X90.464 Y85.664 E12.54791
G1 X91.039 Y85.6 E12.57677
G1 X100.6 Y85.6 E13.05377
G0 F3600 X100.2 Y85.2
;TYPE:WALL-OUTER
G1 F1800 X100.2 Y84.513 E13.08805
G1 X100.246 Y84.1 E13.10878
G1 X100.381 Y83.716 E13.12909
G1 X100.593 Y83.378 E13.14899
G1 X100.878 Y83.093 E13.1691
G1 X101.216 Y82.881 E13.189
G1 X101.6 Y82.746 E13.20931
G1 X102.013 Y82.7 E13.23004
G1 X111.8 Y82.7 E13.71832
G1 X111.8 Y117.3 E15.44452
G1 X102.013 Y117.3 E15.9328
G1 X101.6 Y117.254 E15.95353
G1 X101.216 Y117.119 E15.97383
G1 X100.878 Y116.907 E15.99374
G1 X100.593 Y116.622 E16.01385
G1 X100.381 Y116.284 E16.03375
G1 X100.246 Y115.9 E16.05406
G1 X100.2 Y115.487 E16.07479
G1 X100.2 Y114.8 E16.10907
G1 X91.003 Y114.799 E16.56791
G1 X90.368 Y114.725 E16.5998
G1 X89.775 Y114.515 E16.63119
G1 X89.248 Y114.18 E16.66234
G1 X88.808 Y113.737 E16.69349
G1 X88.474 Y113.202 E16.72496
G1 X88.271 Y112.614 E16.75599
G1 X88.2 Y111.987 E16.78747
G1 X88.2 Y88.013 E17.98354
G1 X88.271 Y87.377 E18.01547
G1 X88.479 Y86.785 E18.04677
G1 X88.814 Y86.253 E18.07814
G1 X89.253 Y85.814 E18.10911
G1 X89.785 Y85.479 E18.14048
G1 X90.377 Y85.271 E18.17178
G1 X91.013 Y85.2 E18.20371
G1 X100.2 Y85.2 E18.66205
G0 F3600 X100.2 Y85
G0 X100.7 Y85
G0 X100.628 Y85.628
G0 X91.372 Y91.872
G0 X91.3 Y92.3
G0 X91.8 Y92.3
G1 F1800 X91.8 Y107.7 E19.43036
G1 X100.2 Y107.7 E19.84944
G1 X100.2 Y92.3 E20.61775
G1 X91.8 Y92.3 E21.03683
G0 F3600 X91.8 Y92.5
G0 X91.3 Y92.5
G0 X91.01 Y91.51
;TYPE:SKIN
G1 F1800 X91.01 Y108.49 E21.88396
G1 X100.99 Y108.49 E22.38187
G1 X100.99 Y91.51 E23.229
G1 X91.01 Y91.51 E23.72691
G0 F3600 X88.99 Y88.064
G1 F1800 X89.047 Y87.55 E23.75271
G1 X89.195 Y87.128 E23.77502
G1 X89.434 Y86.749 E23.79737
G1 X89.749 Y86.434 E23.8196
G1 X90.128 Y86.195 E23.84195
G1 X90.55 Y86.047 E23.86426
G1 X91.064 Y85.99 E23.89006
G1 X100.99 Y85.99 E24.38527
G1 X100.99 Y84.564 E24.45642
G1 X101.022 Y84.273 E24.47102
G1 X101.096 Y84.062 E24.48218
G1 X101.216 Y83.871 E24.49343
G1 X101.371 Y83.716 E24.50437
G1 X101.562 Y83.596 E24.51562
G1 X101.773 Y83.522 E24.52678
G1 X102.064 Y83.49 E24.54138
G1 X111.01 Y83.49 E24.9877
G1 X111.01 Y116.51 E26.63507
G1 X102.064 Y116.51 E27.08139
G1 X101.773 Y116.478 E27.096
G1 X101.562 Y116.404 E27.10715
G1 X101.371 Y116.284 E27.11841
G1 X101.216 Y116.129 E27.12934
G1 X101.096 Y115.938 E27.1406
G1 X101.022 Y115.727 E27.15175
G1 X100.99 Y115.436 E27.16636
G1 X100.99 Y114.01 E27.2375
G1 X91.05 Y114.009 E27.73341
G1 X90.547 Y113.95 E27.75868
G1 X90.124 Y113.801 E27.78105
G1 X89.747 Y113.561 E27.80335
G1 X89.429 Y113.241 E27.82585
G1 X89.193 Y112.862 E27.84813
G1 X89.046 Y112.438 E27.87052
G1 X88.99 Y111.942 E27.89542
G1 X88.99 Y88.064 E29.0867
G0 F3600 X110.829 Y84.242
G1 F1800 X110.257 Y83.669 E29.12709
G0 F3600 X109.691 Y83.669
G1 F1800 X110.829 Y84.808 E29.20742
G0 F3600 X110.829 Y85.373
G1 F1800 X109.125 Y83.669 E29.32764
G0 F3600 X108.559 Y83.669
G1 F1800 X110.829 Y85.939 E29.48781
G0 F3600 X110.829 Y86.505
G1 F1800 X107.994 Y83.669 E29.68787
G0 F3600 X107.428 Y83.669
G1 F1800 X110.829 Y87.071 E29.92786
G0 F3600 X110.829 Y87.636
G1 F1800 X106.862 Y83.669 E30.20775
G0 F3600 X106.297 Y83.669
G1 F1800 X110.829 Y88.202 E30.52754
G0 F3600 X110.829 Y88.768
G1 F1800 X105.731 Y83.669 E30.88727
G0 F3600 X105.165 Y83.669
G1 F1800 X110.829 Y89.333 E31.2869
G0 F3600 X110.829 Y89.899
G1 F1800 X104.6 Y83.669 E31.72642
G0 F3600 X104.034 Y83.669
G1 F1800 X110.829 Y90.465 E32.20588
G0 F3600 X110.829 Y91.03
G1 F1800 X103.468 Y83.669 E32.72524
G0 F3600 X102.903 Y83.669
G1 F1800 X110.829 Y91.596 E33.2845
G0 F3600 X110.829 Y92.162
G1 F1800 X102.337 Y83.669 E33.88369
G0 F3600 X101.804 Y83.702
G1 F1800 X110.829 Y92.727 E34.52045
G0 F3600 X110.829 Y93.293
G1 F1800 X101.438 Y83.901 E35.18307
G0 F3600 X101.22 Y84.249
G1 F1800 X110.829 Y93.859 E35.86107
G0 F3600 X110.829 Y94.424
G1 F1800 X101.169 Y84.764 E36.54264
G0 F3600 X101.169 Y85.33
G1 F1800 X110.829 Y94.99 E37.2242
G0 F3600 X110.829 Y95.556
G1 F1800 X101.169 Y85.895 E37.90581
G0 F3600 X100.877 Y86.17
G1 F1800 X110.829 Y96.121 E38.60794
G0 F3600 X110.829 Y96.687
G1 F1800 X100.312 Y86.17 E39.34997
G0 F3600 X99.746 Y86.17
G1 F1800 X110.829 Y97.253 E40.13193
G0 F3600 X110.829 Y97.819
G1 F1800 X99.18 Y86.17 E40.95383
G0 F3600 X98.615 Y86.17
G1 F1800 X110.829 Y98.384 E41.8156
G0 F3600 X110.829 Y98.95
G1 F1800 X98.049 Y86.17 E42.7173
G0 F3600 X97.483 Y86.17
G1 F1800 X110.829 Y99.516 E43.65893
G0 F3600 X110.829 Y100.081
G1 F1800 X96.918 Y86.17 E44.64042
G0 F3600 X96.352 Y86.17
G1 F1800 X110.829 Y100.647 E45.66185
G0 F3600 X110.829 Y101.213
G1 F1800 X101.169 Y91.552 E46.34346
G0 F3600 X100.946 Y91.329
G1 F1800 X95.786 Y86.17 E46.70749
G0 F3600 X95.221 Y86.17
G1 F1800 X100.38 Y91.329 E47.07148
G0 F3600 X99.815 Y91.329
G1 F1800 X94.655 Y86.17 E47.43551
G0 F3600 X94.089 Y86.17
G1 F1800 X99.249 Y91.329 E47.79954
G0 F3600 X98.683 Y91.329
G1 F1800 X93.524 Y86.17 E48.16354
G0 F3600 X92.958 Y86.17
G1 F1800 X98.118 Y91.329 E48.52757
G0 F3600 X97.552 Y91.329
G1 F1800 X92.392 Y86.17 E48.8916
G0 F3600 X91.827 Y86.17
G1 F1800 X96.986 Y91.329 E49.25559
G0 F3600 X96.421 Y91.329
G1 F1800 X91.261 Y86.17 E49.61962
G0 F3600 X90.733 Y86.207
G1 F1800 X95.854 Y91.329 E49.98097
G0 F3600 X95.289 Y91.329
G1 F1800 X90.289 Y86.329 E50.33375
G0 F3600 X89.928 Y86.534
G1 F1800 X94.723 Y91.329 E50.67206
G0 F3600 X94.157 Y91.329
G1 F1800 X89.632 Y86.803 E50.99136
G0 F3600 X89.4 Y87.138
G1 F1800 X93.591 Y91.329 E51.28706
G0 F3600 X93.026 Y91.329
G1 F1800 X89.238 Y87.541 E51.55432
G0 F3600 X89.172 Y88.041
G1 F1800 X92.46 Y91.329 E51.78631
G0 F3600 X91.894 Y91.329
G1 F1800 X89.168 Y88.603 E51.97864
G0 F3600 X89.168 Y89.168
G1 F1800 X91.329 Y91.329 E52.13111
G0 F3600 X90.829 Y91.395
G1 F1800 X89.168 Y89.734 E52.24831
G0 F3600 X89.168 Y90.3
G1 F1800 X90.829 Y91.961 E52.3655
G0 F3600 X90.829 Y92.527
G1 F1800 X89.168 Y90.866 E52.48269
G0 F3600 X89.168 Y91.431
G1 F1800 X90.829 Y93.092 E52.59988
G0 F3600 X90.829 Y93.658
G1 F1800 X89.168 Y91.997 E52.71708
G0 F3600 X89.168 Y92.563
G1 F1800 X90.829 Y94.224 E52.83427
G0 F3600 X90.829 Y94.789
G1 F1800 X89.168 Y93.128 E52.95146
G0 F3600 X89.168 Y93.694
G1 F1800 X90.829 Y95.355 E53.06866
G0 F3600 X90.829 Y95.921
G1 F1800 X89.168 Y94.26 E53.18585
G0 F3600 X89.168 Y94.825
G1 F1800 X90.829 Y96.486 E53.30304
G0 F3600 X90.829 Y97.052
G1 F1800 X89.168 Y95.391 E53.42023
G0 F3600 X89.168 Y95.957
G1 F1800 X90.829 Y97.618 E53.53743
G0 F3600 X90.829 Y98.183
G1 F1800 X89.168 Y96.522 E53.65462
G0 F3600 X89.168 Y97.088
G1 F1800 X90.829 Y98.749 E53.77181
G0 F3600 X90.829 Y99.315
G1 F1800 X89.168 Y97.654 E53.889
G0 F3600 X89.168 Y98.219
G1 F1800 X90.829 Y99.88 E54.0062
G0 F3600 X90.829 Y100.446
G1 F1800 X89.168 Y98.785 E54.12339
G0 F3600 X89.168 Y99.351
G1 F1800 X90.829 Y101.012 E54.24058
G0 F3600 X90.829 Y101.578
G1 F1800 X89.168 Y99.917 E54.35777
G0 F3600 X89.169 Y100.483
G1 F1800 X90.829 Y102.143 E54.47489
G0 F3600 X90.829 Y102.709
G1 F1800 X89.169 Y101.049 E54.59202
G0 F3600 X89.169 Y101.614
G1 F1800 X90.829 Y103.275 E54.70917
G0 F3600 X90.829 Y103.84
G1 F1800 X89.169 Y102.18 E54.8263
G0 F3600 X89.169 Y102.746
G1 F1800 X90.829 Y104.406 E54.94342
G0 F3600 X90.829 Y104.972
G1 F1800 X89.169 Y103.311 E55.06058
G0 F3600 X89.169 Y103.877
G1 F1800 X90.829 Y105.537 E55.1777
G0 F3600 X90.829 Y106.103
G1 F1800 X89.169 Y104.443 E55.29482
G0 F3600 X89.169 Y105.008
G1 F1800 X90.829 Y106.669 E55.41198
G0 F3600 X90.829 Y107.234
G1 F1800 X89.169 Y105.574 E55.5291
G0 F3600 X89.169 Y106.14
G1 F1800 X90.829 Y107.8 E55.64622
G0 F3600 X90.829 Y108.366
G1 F1800 X89.169 Y106.705 E55.76338
G0 F3600 X89.169 Y107.271
G1 F1800 X95.725 Y113.827 E56.22594
G0 F3600 X95.16 Y113.827
G1 F1800 X89.169 Y107.837 E56.6486
G0 F3600 X89.169 Y108.403
G1 F1800 X94.594 Y113.827 E57.03133
G0 F3600 X94.028 Y113.827
G1 F1800 X89.169 Y108.968 E57.37416
G0 F3600 X89.169 Y109.534
G1 F1800 X93.463 Y113.827 E57.67709
G0 F3600 X92.897 Y113.827
G1 F1800 X89.169 Y110.1 E57.94008
G0 F3600 X89.169 Y110.665
G1 F1800 X92.331 Y113.827 E58.16318
G0 F3600 X91.766 Y113.827
G1 F1800 X89.169 Y111.231 E58.34638
G0 F3600 X89.169 Y111.797
G1 F1800 X91.2 Y113.827 E58.48964
G0 F3600 X90.576 Y113.769
G1 F1800 X89.231 Y112.424 E58.58454
G1 X89.161 Y112.354
G0 F3600 X91.133 Y108.669
G1 F1800 X96.291 Y113.827 E58.94846
G0 F3600 X96.857 Y113.827
G1 F1800 X91.699 Y108.669 E59.31238
G0 F3600 X92.264 Y108.669
G1 F1800 X97.423 Y113.827 E59.67634
G0 F3600 X97.988 Y113.827
G1 F1800 X92.83 Y108.669 E60.04027
G0 F3600 X93.396 Y108.669
G1 F1800 X98.554 Y113.827 E60.40419
G0 F3600 X99.12 Y113.827
G1 F1800 X93.961 Y108.669 E60.76815
G0 F3600 X94.527 Y108.669
G1 F1800 X99.685 Y113.827 E61.13208
G0 F3600 X100.251 Y113.827
G1 F1800 X95.093 Y108.669 E61.496
G0 F3600 X95.658 Y108.669
G1 F1800 X100.817 Y113.827 E61.85996
G0 F3600 X101.17 Y114.18
G1 F1800 X103.318 Y116.329 E62.01155
G0 F3600 X102.753 Y116.329
G1 F1800 X101.17 Y114.746 E62.12324
G0 F3600 X101.17 Y115.312
G1 F1800 X102.187 Y116.329 E62.195
G1 X102.257 Y116.399
G0 F3600 X103.884 Y116.329
G1 F1800 X96.224 Y108.669 E62.73545
G0 F3600 X96.79 Y108.669
G1 F1800 X104.45 Y116.329 E63.2759
G0 F3600 X105.015 Y116.329
G1 F1800 X97.355 Y108.669 E63.81636
G0 F3600 X97.921 Y108.669
G1 F1800 X105.581 Y116.329 E64.35681
G0 F3600 X106.147 Y116.329
G1 F1800 X98.487 Y108.669 E64.89727
G0 F3600 X99.052 Y108.669
G1 F1800 X106.713 Y116.329 E65.43776
G0 F3600 X107.278 Y116.329
G1 F1800 X99.618 Y108.669 E65.97821
G0 F3600 X100.184 Y108.669
G1 F1800 X107.844 Y116.329 E66.51867
G0 F3600 X108.41 Y116.329
G1 F1800 X100.749 Y108.669 E67.05916
G0 F3600 X101.169 Y108.523
G1 F1800 X108.975 Y116.329 E67.60991
G0 F3600 X109.541 Y116.329
G1 F1800 X101.169 Y107.957 E68.2006
G0 F3600 X101.169 Y107.391
G1 F1800 X110.107 Y116.329 E68.83123
G0 F3600 X110.672 Y116.329
G1 F1800 X101.169 Y106.826 E69.50171
G0 F3600 X101.169 Y106.26
G1 F1800 X110.829 Y115.92 E70.18328
G0 F3600 X110.829 Y115.355
G1 F1800 X101.169 Y105.694 E70.86488
G0 F3600 X101.169 Y105.129
G1 F1800 X110.829 Y114.789 E71.54644
G0 F3600 X110.829 Y114.223
G1 F1800 X101.169 Y104.563 E72.22801
G0 F3600 X101.169 Y103.997
G1 F1800 X110.829 Y113.658 E72.90961
G0 F3600 X110.829 Y113.092
G1 F1800 X101.169 Y103.432 E73.59118
G0 F3600 X101.169 Y102.866
G1 F1800 X110.829 Y112.526 E74.27274
G0 F3600 X110.829 Y111.961
G1 F1800 X101.169 Y102.3 E74.95434
G0 F3600 X101.169 Y101.734
G1 F1800 X110.829 Y111.395 E75.63594
G0 F3600 X110.829 Y110.829
G1 F1800 X101.169 Y101.169 E76.31751
G0 F3600 X101.169 Y100.603
G1 F1800 X110.829 Y110.264 E76.99911
G0 F3600 X110.829 Y109.698
G1 F1800 X101.169 Y100.037 E77.68071
G0 F3600 X101.169 Y99.472
G1 F1800 X110.829 Y109.132 E78.36227
G0 F3600 X110.829 Y108.567
G1 F1800 X101.169 Y98.906 E79.04387
G0 F3600 X101.169 Y98.34
G1 F1800 X110.829 Y108.001 E79.72547
G0 F3600 X110.829 Y107.435
G1 F1800 X101.169 Y97.775 E80.40704
G0 F3600 X101.169 Y97.209
G1 F1800 X110.829 Y106.869 E81.0886
G0 F3600 X110.829 Y106.304
G1 F1800 X101.169 Y96.643 E81.7702
G0 F3600 X101.169 Y96.078
G1 F1800 X110.829 Y105.738 E82.45177
G0 F3600 X110.829 Y105.172
G1 F1800 X101.169 Y95.512 E83.13333
G0 F3600 X101.169 Y94.946
G1 F1800 X110.829 Y104.607 E83.81494
G0 F3600 X110.829 Y104.041
G1 F1800 X101.169 Y94.381 E84.4965
G0 F3600 X101.169 Y93.815
G1 F1800 X110.829 Y103.475 E85.17807
G0 F3600 X110.829 Y102.91
G1 F1800 X101.169 Y93.249 E85.85967
G0 F3600 X101.169 Y92.684
G1 F1800 X110.829 Y102.344 E86.54123
G0 F3600 X110.829 Y101.778
G1 F1800 X101.169 Y92.118 E87.2228
G1 X101.099 Y92.048
G1 F1500 E80.7228
;MESH:NONMESH
G0 F3600 X100.6 Y93.4
G0 X98.679 Y93.4
;TIME_ELAPSED:71.732962
;LAYER:1
M140 S60
M106 S255
G0 F5400 X98.679 Y93.4 Z0.5
;TYPE:SUPPORT
G1 F1500 E87.2228
G1 F2700 X96.012 Y93.4 E87.3115
G1 X96.012 Y106.6 E87.75053
G1 X93.345 Y106.6 E87.83924
G1 X92.9 Y106.6 E87.85404
G1 X92.9 Y93.4 E88.29307
G1 X93.345 Y93.4 E88.30787
G1 X93.345 Y106.6 E88.74691
G0 F5400 X98.679 Y93.4
G1 F2700 X99.1 Y93.4 E88.76091
G1 X99.1 Y106.6 E89.19994
G1 X98.679 Y106.6 E89.21395
G1 X98.679 Y93.4 E89.65298
G1 F1500 E83.15298
;MESH:greenLEDHolder.stl
G0 F5400 X98.679 Y91.9
G0 X91.33 Y91.83
G0 X91.4 Y91.9
;TYPE:WALL-INNER
G1 F1500 E89.65298
G1 F2700 X91.4 Y108.1 E90.1918
G1 X100.6 Y108.1 E90.49779
G1 X100.6 Y91.9 E91.0366
G1 X91.4 Y91.9 E91.3426
G0 F5400 X91.33 Y91.83
G0 X100.67 Y85.67
G0 X100.6 Y85.6
G1 F2700 X100.6 Y84.539 E91.37789
G1 X100.639 Y84.187 E91.38966
G1 X100.742 Y83.893 E91.40003
G1 X100.908 Y83.629 E91.4104
G1 X101.129 Y83.408 E91.42079
G1 X101.393 Y83.242 E91.43117
G1 X101.687 Y83.139 E91.44153
G1 X102.039 Y83.1 E91.45331
G1 X111.4 Y83.1 E91.76465
G1 X111.4 Y116.9 E92.88885
G1 X102.039 Y116.9 E93.20019
G1 X101.687 Y116.861 E93.21197
G1 X101.393 Y116.758 E93.22233
G1 X101.129 Y116.592 E93.23271
G1 X100.908 Y116.371 E93.2431
G1 X100.742 Y116.107 E93.25347
G1 X100.639 Y115.813 E93.26384
G1 X100.6 Y115.461 E93.27561
G1 X100.6 Y114.4 E93.3109
G1 X91.01 Y114.397 E93.62987
G1 X90.463 Y114.336 E93.64817
G1 X89.959 Y114.158 E93.66595
G1 X89.507 Y113.874 E93.68371
G1 X89.126 Y113.493 E93.70163
G1 X88.842 Y113.041 E93.71938
G1 X88.664 Y112.536 E93.73719
G1 X88.6 Y111.961 E93.75644
G1 X88.6 Y88.039 E94.55208
G1 X88.664 Y87.464 E94.57133
G1 X88.842 Y86.959 E94.58914
G1 X89.126 Y86.507 E94.60689
G1 X89.507 Y86.126 E94.62481
G1 X89.959 Y85.842 E94.64257
G1 X90.464 Y85.664 E94.66038
G1 X91.039 Y85.6 E94.67962
G1 X100.6 Y85.6 E94.99762
G0 F5400 X100.2 Y85.2
;TYPE:WALL-OUTER
G1 F1800 X100.2 Y84.513 E95.02047
G1 X100.246 Y84.1 E95.03429
G1 X100.381 Y83.716 E95.04783
G1 X100.593 Y83.378 E95.0611
G1 X100.878 Y83.093 E95.0745
G1 X101.216 Y82.881 E95.08777
G1 X101.6 Y82.746 E95.10131
G1 X102.013 Y82.7 E95.11513
G1 X111.8 Y82.7 E95.44065
G1 X111.8 Y117.3 E96.59145
