;FLAVOR:Marlin
;TIME:5060
;Filament used: 5.40627m
;Layer height: 0.2
;Generated with Cura_SteamEngine 3.6.0
M140 S60
M105
M190 S60
M104 S220
M105
M109 S220
M82 ;absolute extrusion mode
G21 ;metric values
G90 ;absolute positioning
M82 ;set extruder to absolute mode
M107 ;start with the fan off
G28 X0 Y0 ;move X/Y to min endstops
G28 Z0 ;move Z to min endstops
G1 Z15.0 F9000 ;move the platform down 15mm
G92 E0 ;zero the extruded length
G1 F200 E3 ;extrude 3mm of feed stock
G92 E0 ;zero the extruded length again
G1 F9000
;Put printing message on LCD screen
M117 Printing...
G92 E0
G1 F1500 E-6.5
;LAYER_COUNT:35
;LAYER:0
M107
G0 F3600 X34.9 Y60.299 Z0.3
;TYPE:SUPPORT
G1 F1500 E0
G1 F1800 X165.1 Y60.299 E6.4957
G1 X165.1 Y92.499 E8.10217
G1 X34.9 Y92.499 E14.59787
G1 X34.9 Y60.299 E16.20434
G0 F3600 X37.399 Y62.399
G1 F1800 X37 Y62.798 E16.23249
G1 X37 Y90 E17.5896
G1 X37.399 Y90.399 E17.61775
G1 X162.601 Y90.399 E23.86411
G1 X163 Y90 E23.89226
G1 X163 Y62.798 E25.24937
G1 X162.601 Y62.399 E25.27752
G1 X37.399 Y62.399 E31.52388
G0 F3600 X37.338 Y62.239
G1 F1800 X37.338 Y60.459 E31.61268
G0 F3600 X35.059 Y61.341
G1 F1800 X164.94 Y61.341 E38.09247
G0 F3600 X162.687 Y60.459
G1 F1800 X162.687 Y62.258 E38.18222
G0 F3600 X163.16 Y64.008
G1 F1800 X164.94 Y64.008 E38.27103
G0 F3600 X164.94 Y66.675
G1 F1800 X163.16 Y66.675 E38.35983
G0 F3600 X163.16 Y69.342
G1 F1800 X164.94 Y69.342 E38.44864
G0 F3600 X164.94 Y72.009
G1 F1800 X163.16 Y72.009 E38.53744
G0 F3600 X163.16 Y74.676
G1 F1800 X164.94 Y74.676 E38.62625
G0 F3600 X164.94 Y77.343
G1 F1800 X163.16 Y77.343 E38.71505
G0 F3600 X163.16 Y80.01
G1 F1800 X164.94 Y80.01 E38.80386
G0 F3600 X164.94 Y82.677
G1 F1800 X163.16 Y82.677 E38.89266
G0 F3600 X163.16 Y85.344
G1 F1800 X164.94 Y85.344 E38.98146
G0 F3600 X164.94 Y88.011
G1 F1800 X163.16 Y88.011 E39.07027
G0 F3600 X162.687 Y90.54
G1 F1800 X162.687 Y92.339 E39.16002
G0 F3600 X160.02 Y92.339
G1 F1800 X160.02 Y90.559 E39.24883
G0 F3600 X157.353 Y90.559
G1 F1800 X157.353 Y92.339 E39.33763
G0 F3600 X154.686 Y92.339
G1 F1800 X154.686 Y90.559 E39.42644
G0 F3600 X152.019 Y90.559
G1 F1800 X152.019 Y92.339 E39.51524
G0 F3600 X149.352 Y92.339
G1 F1800 X149.352 Y90.559 E39.60404
G0 F3600 X146.685 Y90.559
G1 F1800 X146.685 Y92.339 E39.69285
G0 F3600 X144.018 Y92.339
G1 F1800 X144.018 Y90.559 E39.78165
G0 F3600 X141.351 Y90.559
G1 F1800 X141.351 Y92.339 E39.87046
G0 F3600 X138.684 Y92.339
G1 F1800 X138.684 Y90.559 E39.95926
G0 F3600 X136.017 Y90.559
G1 F1800 X136.017 Y92.339 E40.04807
G0 F3600 X133.35 Y92.339
G1 F1800 X133.35 Y90.559 E40.13687
G0 F3600 X130.683 Y90.559
G1 F1800 X130.683 Y92.339 E40.22568
G0 F3600 X128.016 Y92.339
G1 F1800 X128.016 Y90.559 E40.31448
G0 F3600 X125.349 Y90.559
G1 F1800 X125.349 Y92.339 E40.40329
G0 F3600 X122.682 Y92.339
G1 F1800 X122.682 Y90.559 E40.49209
G0 F3600 X120.015 Y90.559
G1 F1800 X120.015 Y92.339 E40.58089
G0 F3600 X117.348 Y92.339
G1 F1800 X117.348 Y90.559 E40.6697
G0 F3600 X114.681 Y90.559
G1 F1800 X114.681 Y92.339 E40.7585
G0 F3600 X112.014 Y92.339
G1 F1800 X112.014 Y90.559 E40.84731
G0 F3600 X109.347 Y90.559
G1 F1800 X109.347 Y92.339 E40.93611
G0 F3600 X106.68 Y92.339
G1 F1800 X106.68 Y90.559 E41.02492
G0 F3600 X104.013 Y90.559
G1 F1800 X104.013 Y92.339 E41.11372
G0 F3600 X101.346 Y92.339
G1 F1800 X101.346 Y90.559 E41.20253
G0 F3600 X98.679 Y90.559
G1 F1800 X98.679 Y92.339 E41.29133
G0 F3600 X96.012 Y92.339
G1 F1800 X96.012 Y90.559 E41.38014
G0 F3600 X93.345 Y90.559
G1 F1800 X93.345 Y92.339 E41.46894
G0 F3600 X90.678 Y92.339
G1 F1800 X90.678 Y90.559 E41.55774
G0 F3600 X88.011 Y90.559
G1 F1800 X88.011 Y92.339 E41.64655
G0 F3600 X85.344 Y92.339
G1 F1800 X85.344 Y90.559 E41.73535
G0 F3600 X82.677 Y90.559
G1 F1800 X82.677 Y92.339 E41.82416
G0 F3600 X80.01 Y92.339
G1 F1800 X80.01 Y90.559 E41.91296
G0 F3600 X77.343 Y90.559
G1 F1800 X77.343 Y92.339 E42.00177
G0 F3600 X74.676 Y92.339
G1 F1800 X74.676 Y90.559 E42.09057
G0 F3600 X72.009 Y90.559
G1 F1800 X72.009 Y92.339 E42.17938
G0 F3600 X69.342 Y92.339
G1 F1800 X69.342 Y90.559 E42.26818
G0 F3600 X66.675 Y90.559
G1 F1800 X66.675 Y92.339 E42.35699
G0 F3600 X64.008 Y92.339
G1 F1800 X64.008 Y90.559 E42.44579
G0 F3600 X61.341 Y90.559
G1 F1800 X61.341 Y92.339 E42.53459
G0 F3600 X58.674 Y92.339
G1 F1800 X58.674 Y90.559 E42.6234
G0 F3600 X56.007 Y90.559
G1 F1800 X56.007 Y92.339 E42.7122
G0 F3600 X53.34 Y92.339
G1 F1800 X53.34 Y90.559 E42.80101
G0 F3600 X50.673 Y90.559
G1 F1800 X50.673 Y92.339 E42.88981
G0 F3600 X48.006 Y92.339
G1 F1800 X48.006 Y90.559 E42.97862
G0 F3600 X45.339 Y90.559
G1 F1800 X45.339 Y92.339 E43.06742
G0 F3600 X42.672 Y92.339
G1 F1800 X42.672 Y90.559 E43.15623
G0 F3600 X40.005 Y90.559
G1 F1800 X40.005 Y92.339 E43.24503
G0 F3600 X37.338 Y92.339
G1 F1800 X37.338 Y90.559 E43.33384
G0 F3600 X35.059 Y90.678
G1 F1800 X164.94 Y90.678 E49.81363
G0 F3600 X160.02 Y62.239
G1 F1800 X160.02 Y60.459 E49.90243
G0 F3600 X157.353 Y60.459
G1 F1800 X157.353 Y62.239 E49.99123
G0 F3600 X154.686 Y62.239
G1 F1800 X154.686 Y60.459 E50.08004
G0 F3600 X152.019 Y60.459
G1 F1800 X152.019 Y62.239 E50.16884
G0 F3600 X149.352 Y62.239
G1 F1800 X149.352 Y60.459 E50.25765
G0 F3600 X146.685 Y60.459
G1 F1800 X146.685 Y62.239 E50.34645
G0 F3600 X144.018 Y62.239
G1 F1800 X144.018 Y60.459 E50.43526
G0 F3600 X141.351 Y60.459
G1 F1800 X141.351 Y62.239 E50.52406
G0 F3600 X138.684 Y62.239
G1 F1800 X138.684 Y60.459 E50.61287
G0 F3600 X136.017 Y60.459
G1 F1800 X136.017 Y62.239 E50.70167
G0 F3600 X133.35 Y62.239
G1 F1800 X133.35 Y60.459 E50.79048
G0 F3600 X130.683 Y60.459
G1 F1800 X130.683 Y62.239 E50.87928
G0 F3600 X128.016 Y62.239
G1 F1800 X128.016 Y60.459 E50.96808
G0 F3600 X125.349 Y60.459
G1 F1800 X125.349 Y62.239 E51.05689
G0 F3600 X122.682 Y62.239
G1 F1800 X122.682 Y60.459 E51.14569
G0 F3600 X120.015 Y60.459
G1 F1800 X120.015 Y62.239 E51.2345
G0 F3600 X117.348 Y62.239
G1 F1800 X117.348 Y60.459 E51.3233
G0 F3600 X114.681 Y60.459
G1 F1800 X114.681 Y62.239 E51.41211
G0 F3600 X112.014 Y62.239
G1 F1800 X112.014 Y60.459 E51.50091
G0 F3600 X109.347 Y60.459
G1 F1800 X109.347 Y62.239 E51.58972
G0 F3600 X106.68 Y62.239
G1 F1800 X106.68 Y60.459 E51.67852
G0 F3600 X104.013 Y60.459
G1 F1800 X104.013 Y62.239 E51.76733
G0 F3600 X101.346 Y62.239
G1 F1800 X101.346 Y60.459 E51.85613
G0 F3600 X98.679 Y60.459
G1 F1800 X98.679 Y62.239 E51.94493
G0 F3600 X96.012 Y62.239
G1 F1800 X96.012 Y60.459 E52.03374
G0 F3600 X93.345 Y60.459
G1 F1800 X93.345 Y62.239 E52.12254
G0 F3600 X90.678 Y62.239
G1 F1800 X90.678 Y60.459 E52.21135
G0 F3600 X88.011 Y60.459
G1 F1800 X88.011 Y62.239 E52.30015
G0 F3600 X85.344 Y62.239
G1 F1800 X85.344 Y60.459 E52.38896
G0 F3600 X82.677 Y60.459
G1 F1800 X82.677 Y62.239 E52.47776
G0 F3600 X80.01 Y62.239
G1 F1800 X80.01 Y60.459 E52.56657
G0 F3600 X77.343 Y60.459
G1 F1800 X77.343 Y62.239 E52.65537
G0 F3600 X74.676 Y62.239
G1 F1800 X74.676 Y60.459 E52.74418
G0 F3600 X72.009 Y60.459
G1 F1800 X72.009 Y62.239 E52.83298
G0 F3600 X69.342 Y62.239
G1 F1800 X69.342 Y60.459 E52.92178
G0 F3600 X66.675 Y60.459
G1 F1800 X66.675 Y62.239 E53.01059
G0 F3600 X64.008 Y62.239
G1 F1800 X64.008 Y60.459 E53.09939
G0 F3600 X61.341 Y60.459
G1 F1800 X61.341 Y62.239 E53.1882
G0 F3600 X58.674 Y62.239
G1 F1800 X58.674 Y60.459 E53.277
G0 F3600 X56.007 Y60.459
G1 F1800 X56.007 Y62.239 E53.36581
G0 F3600 X53.34 Y62.239
G1 F1800 X53.34 Y60.459 E53.45461
G0 F3600 X50.673 Y60.459
G1 F1800 X50.673 Y62.239 E53.54342
G0 F3600 X48.006 Y62.239
G1 F1800 X48.006 Y60.459 E53.63222
G0 F3600 X45.339 Y60.459
G1 F1800 X45.339 Y62.239 E53.72103
G0 F3600 X42.672 Y62.239
G1 F1800 X42.672 Y60.459 E53.80983
G0 F3600 X40.005 Y60.459
G1 F1800 X40.005 Y62.239 E53.89864
G0 F3600 X36.839 Y64.008
G1 F1800 X35.059 Y64.008 E53.98744
G0 F3600 X35.059 Y66.675
G1 F1800 X36.839 Y66.675 E54.07624
G0 F3600 X36.839 Y69.342
G1 F1800 X35.059 Y69.342 E54.16505
G0 F3600 X35.059 Y72.009
G1 F1800 X36.839 Y72.009 E54.25385
G0 F3600 X36.839 Y74.676
G1 F1800 X35.059 Y74.676 E54.34266
G0 F3600 X35.059 Y77.343
G1 F1800 X36.839 Y77.343 E54.43146
G0 F3600 X36.839 Y80.01
G1 F1800 X35.059 Y80.01 E54.52027
G0 F3600 X35.059 Y82.677
G1 F1800 X36.839 Y82.677 E54.60907
G0 F3600 X36.839 Y85.344
G1 F1800 X35.059 Y85.344 E54.69788
G0 F3600 X35.059 Y88.011
G1 F1800 X36.839 Y88.011 E54.78668
G1 F1500 E48.28668
;MESH:LEDMatrixHolder.stl
G0 F3600 X34.665 Y88.011
G0 X33.4 Y88.011
G0 X33.33 Y58.729
G0 X33.4 Y58.799
;TYPE:WALL-INNER
G1 F1500 E54.78668
G1 F1800 X33.4 Y93.999 E56.54282
G1 X166.6 Y93.999 E63.18819
G1 X166.6 Y58.799 E64.94433
G1 X33.4 Y58.799 E71.5897
G0 F3600 X33.33 Y58.729
G0 X166.628 Y58.771
G0 X170.304 Y60.591
G0 X170.4 Y60.565
G1 F1800 X170.4 Y89.885 E73.05248
G1 X170.294 Y90.967 E73.10672
G1 X169.987 Y91.979 E73.15948
G1 X169.488 Y92.91 E73.21218
G1 X168.793 Y93.758 E73.26688
G1 X166.359 Y96.191 E73.43858
G1 X165.511 Y96.888 E73.49334
G1 X164.58 Y97.386 E73.54602
G1 X163.568 Y97.693 E73.59878
G1 X162.486 Y97.799 E73.65302
G1 X37.514 Y97.799 E79.8879
G1 X36.432 Y97.693 E79.94214
G1 X35.42 Y97.386 E79.9949
G1 X34.489 Y96.888 E80.04757
G1 X33.641 Y96.191 E80.10234
G1 X31.207 Y93.758 E80.27403
G1 X30.512 Y92.91 E80.32873
G1 X30.013 Y91.979 E80.38143
G1 X29.706 Y90.967 E80.43419
G1 X29.6 Y89.885 E80.48843
G1 X29.6 Y60.565 E81.95121
G1 X35.34 Y50.999 E82.50779
G1 X164.66 Y50.999 E88.95959
G1 X170.4 Y60.565 E89.51616
G0 F3600 X170.8 Y60.454
;TYPE:WALL-OUTER
G1 F1800 X170.8 Y89.904 E90.98543
G1 X170.688 Y91.047 E91.04273
G1 X170.358 Y92.134 E91.0994
G1 X169.824 Y93.132 E91.15587
G1 X169.088 Y94.029 E91.21376
G1 X166.63 Y96.486 E91.38715
G1 X165.733 Y97.223 E91.44507
G1 X164.735 Y97.757 E91.50154
G1 X163.648 Y98.087 E91.55821
G1 X162.505 Y98.199 E91.61551
G1 X37.495 Y98.199 E97.85228
G1 X36.352 Y98.087 E97.90958
G1 X35.265 Y97.757 E97.96626
G1 X34.267 Y97.223 E98.02273
G1 X33.37 Y96.486 E98.08065
G1 X30.912 Y94.029 E98.25404
G1 X30.176 Y93.132 E98.31192
G1 X29.642 Y92.134 E98.36839
G1 X29.312 Y91.047 E98.42507
G1 X29.2 Y89.904 E98.48237
G1 X29.2 Y60.454 E99.95163
G1 X35.113 Y50.599 E100.52501
G1 X164.887 Y50.599 E106.99946
G1 X170.8 Y60.454 E107.57284
G0 F3600 X170.8 Y60.654
G0 X170.3 Y60.654
G0 X166.628 Y58.771
G0 X33.372 Y58.771
G0 X33.3 Y59.199
G0 X33.8 Y59.199
G1 F1800 X33.8 Y93.599 E109.28906
G1 X166.2 Y93.599 E115.89453
G1 X166.2 Y59.199 E117.61075
G1 X33.8 Y59.199 E124.21621
G0 F3600 X33.8 Y59.399
G0 X33.3 Y59.399
G0 X33.01 Y58.409
;TYPE:SKIN
G1 F1800 X33.01 Y94.389 E126.01126
G1 X166.99 Y94.389 E132.69555
G1 X166.99 Y58.409 E134.4906
G1 X33.01 Y58.409 E141.17489
G0 F3600 X29.99 Y60.673
G1 F1800 X35.561 Y51.389 E141.71506
G1 X164.439 Y51.389 E148.14481
G1 X170.01 Y60.673 E148.68498
G1 X170.01 Y89.868 E150.14153
G1 X169.91 Y90.89 E150.19276
G1 X169.625 Y91.832 E150.24186
G1 X169.165 Y92.689 E150.29039
G1 X168.496 Y93.505 E150.34303
G1 X166.111 Y95.889 E150.51127
G1 X165.287 Y96.566 E150.56447
G1 X164.433 Y97.024 E150.61282
G1 X163.491 Y97.309 E150.66192
G1 X162.469 Y97.409 E150.71315
G1 X37.531 Y97.409 E156.94633
G1 X36.509 Y97.309 E156.99757
G1 X35.567 Y97.024 E157.04667
G1 X34.713 Y96.566 E157.09501
G1 X33.889 Y95.889 E157.14822
G1 X31.504 Y93.505 E157.31646
G1 X30.835 Y92.689 E157.3691
G1 X30.375 Y91.832 E157.41763
G1 X30.09 Y90.89 E157.46673
G1 X29.99 Y89.868 E157.51796
G1 X29.99 Y60.673 E158.9745
G0 F3600 X33.372 Y94.027
G0 X34.484 Y96.143
G1 F1800 X32.909 Y94.569 E159.08559
G0 F3600 X32.83 Y94.489
G1 F1800 X31.249 Y92.908 E159.19714
G1 X31.179 Y92.838
G0 F3600 X30.485 Y91.579
G1 F1800 X32.83 Y93.924 E159.36259
G0 F3600 X32.83 Y93.358
G1 F1800 X30.259 Y90.788 E159.54395
G0 F3600 X30.199 Y90.161
G1 F1800 X32.83 Y92.792 E159.72959
G0 F3600 X32.83 Y92.227
G1 F1800 X30.17 Y89.567 E159.91726
G0 F3600 X30.17 Y89.001
G1 F1800 X32.83 Y91.661 E160.10494
G0 F3600 X32.83 Y91.095
G1 F1800 X30.17 Y88.435 E160.29262
G0 F3600 X30.17 Y87.87
G1 F1800 X32.83 Y90.53 E160.4803
G0 F3600 X32.83 Y89.964
G1 F1800 X30.17 Y87.304 E160.66797
G0 F3600 X30.17 Y86.738
G1 F1800 X32.83 Y89.398 E160.85565
G0 F3600 X32.83 Y88.833
G1 F1800 X30.17 Y86.172 E161.04336
G0 F3600 X30.17 Y85.607
G1 F1800 X32.83 Y88.267 E161.23104
G0 F3600 X32.83 Y87.701
G1 F1800 X30.17 Y85.041 E161.41872
G0 F3600 X30.17 Y84.475
G1 F1800 X32.83 Y87.136 E161.60643
G0 F3600 X32.83 Y86.57
G1 F1800 X30.17 Y83.91 E161.79411
G0 F3600 X30.17 Y83.344
G1 F1800 X32.83 Y86.004 E161.98179
G0 F3600 X32.83 Y85.439
G1 F1800 X30.17 Y82.778 E162.1695
G0 F3600 X30.17 Y82.213
G1 F1800 X32.83 Y84.873 E162.35718
G0 F3600 X32.83 Y84.307
G1 F1800 X30.17 Y81.647 E162.54485
G0 F3600 X30.17 Y81.081
G1 F1800 X32.83 Y83.741 E162.73253
G0 F3600 X32.83 Y83.176
G1 F1800 X30.17 Y80.516 E162.92021
G0 F3600 X30.17 Y79.95
G1 F1800 X32.83 Y82.61 E163.10788
G0 F3600 X32.83 Y82.044
G1 F1800 X30.17 Y79.384 E163.29556
G0 F3600 X30.17 Y78.819
G1 F1800 X32.83 Y81.479 E163.48324
G0 F3600 X32.83 Y80.913
G1 F1800 X30.17 Y78.253 E163.67092
G0 F3600 X30.17 Y77.687
G1 F1800 X32.83 Y80.347 E163.85859
G0 F3600 X32.83 Y79.782
G1 F1800 X30.17 Y77.122 E164.04627
G0 F3600 X30.17 Y76.556
G1 F1800 X32.83 Y79.216 E164.23395
G0 F3600 X32.83 Y78.65
G1 F1800 X30.17 Y75.99 E164.42163
G0 F3600 X30.17 Y75.424
G1 F1800 X32.83 Y78.085 E164.60934
G0 F3600 X32.83 Y77.519
G1 F1800 X30.17 Y74.859 E164.79702
G0 F3600 X30.17 Y74.293
G1 F1800 X32.83 Y76.953 E164.98469
G0 F3600 X32.83 Y76.388
G1 F1800 X30.17 Y73.727 E165.17241
G0 F3600 X30.17 Y73.162
G1 F1800 X32.83 Y75.822 E165.36008
G0 F3600 X32.83 Y75.256
G1 F1800 X30.17 Y72.596 E165.54776
G0 F3600 X30.17 Y72.03
G1 F1800 X32.83 Y74.69 E165.73544
G0 F3600 X32.83 Y74.125
G1 F1800 X30.17 Y71.465 E165.92312
G0 F3600 X30.17 Y70.899
G1 F1800 X32.83 Y73.559 E166.11079
G0 F3600 X32.83 Y72.993
G1 F1800 X30.17 Y70.333 E166.29847
G0 F3600 X30.17 Y69.768
G1 F1800 X32.83 Y72.428 E166.48615
G0 F3600 X32.83 Y71.862
G1 F1800 X30.17 Y69.202 E166.67383
G0 F3600 X30.17 Y68.636
G1 F1800 X32.83 Y71.296 E166.8615
G0 F3600 X32.83 Y70.731
G1 F1800 X30.17 Y68.071 E167.04918
G0 F3600 X30.17 Y67.505
G1 F1800 X32.83 Y70.165 E167.23686
G0 F3600 X32.83 Y69.599
G1 F1800 X30.17 Y66.939 E167.42453
G0 F3600 X30.17 Y66.373
G1 F1800 X32.83 Y69.034 E167.61225
G0 F3600 X32.83 Y68.468
G1 F1800 X30.17 Y65.808 E167.79992
G0 F3600 X30.17 Y65.242
G1 F1800 X32.83 Y67.902 E167.9876
G0 F3600 X32.83 Y67.337
G1 F1800 X30.17 Y64.676 E168.17531
G0 F3600 X30.17 Y64.111
G1 F1800 X32.83 Y66.771 E168.36299
G0 F3600 X32.83 Y66.205
G1 F1800 X30.17 Y63.545 E168.55067
G0 F3600 X30.17 Y62.979
G1 F1800 X32.83 Y65.64 E168.73838
G0 F3600 X32.83 Y65.074
G1 F1800 X30.17 Y62.414 E168.92606
G0 F3600 X30.17 Y61.848
G1 F1800 X32.83 Y64.508 E169.11374
G0 F3600 X32.83 Y63.942
G1 F1800 X30.17 Y61.282 E169.30141
G0 F3600 X30.171 Y60.718
G1 F1800 X32.83 Y63.377 E169.48902
G0 F3600 X32.83 Y62.811
G1 F1800 X30.383 Y60.364 E169.66167
G0 F3600 X30.595 Y60.011
G1 F1800 X32.83 Y62.245 E169.81933
G0 F3600 X32.83 Y61.68
G1 F1800 X30.807 Y59.657 E169.96206
G0 F3600 X31.02 Y59.304
G1 F1800 X32.83 Y61.114 E170.08976
G0 F3600 X32.83 Y60.548
G1 F1800 X31.232 Y58.95 E170.20251
G0 F3600 X31.444 Y58.597
G1 F1800 X32.83 Y59.983 E170.3003
G0 F3600 X32.83 Y59.417
G1 F1800 X31.656 Y58.243 E170.38313
G0 F3600 X31.868 Y57.89
G1 F1800 X32.83 Y58.851 E170.45097
G0 F3600 X32.83 Y58.286
G1 F1800 X32.08 Y57.536 E170.50389
G0 F3600 X32.292 Y57.183
G1 F1800 X33.337 Y58.228 E170.57762
G0 F3600 X33.903 Y58.228
G1 F1800 X32.504 Y56.829 E170.67633
G0 F3600 X32.717 Y56.475
G1 F1800 X34.469 Y58.228 E170.79998
G0 F3600 X35.035 Y58.228
G1 F1800 X32.929 Y56.122 E170.94857
G0 F3600 X33.141 Y55.768
G1 F1800 X35.6 Y58.228 E171.1221
G0 F3600 X36.166 Y58.228
G1 F1800 X33.353 Y55.415 E171.32057
G0 F3600 X33.565 Y55.061
G1 F1800 X36.732 Y58.228 E171.54402
G0 F3600 X37.297 Y58.228
G1 F1800 X33.777 Y54.708 E171.79237
G0 F3600 X33.989 Y54.354
G1 F1800 X37.863 Y58.228 E172.0657
G0 F3600 X38.429 Y58.228
G1 F1800 X34.202 Y54.001 E172.36394
G0 F3600 X34.414 Y53.648
G1 F1800 X38.994 Y58.228 E172.68709
G0 F3600 X39.56 Y58.228
G1 F1800 X34.627 Y53.294 E173.03517
G0 F3600 X34.839 Y52.941
G1 F1800 X40.126 Y58.228 E173.4082
G0 F3600 X40.691 Y58.228
G1 F1800 X35.051 Y52.587 E173.80616
G0 F3600 X35.263 Y52.233
G1 F1800 X41.257 Y58.228 E174.22911
