;FLAVOR:Marlin
;TIME:855
;Filament used: 0.659105m
;Layer height: 0.2
;Generated with Cura_SteamEngine 3.6.0
M140 S60
M105
M190 S60
M104 S220
M105
M109 S220
M82 ;absolute extrusion mode
G21 ;metric values
G90 ;absolute positioning
M82 ;set extruder to absolute mode
M107 ;start with the fan off
G28 X0 Y0 ;move X/Y to min endstops
G28 Z0 ;move Z to min endstops
G1 Z15.0 F9000 ;move the platform down 15mm
G92 E0 ;zero the extruded length
G1 F200 E3 ;extrude 3mm of feed stock
G92 E0 ;zero the extruded length again
G1 F9000
;Put printing message on LCD screen
M117 Printing...
G92 E0
G1 F1500 E-6.5
;LAYER_COUNT:67
;LAYER:0
M107
;MESH:switchHolder.stl
G0 F3600 X96.1 Y104.3 Z0.3
;TYPE:WALL-INNER
G1 F1500 E0
G1 F1800 X103.9 Y104.3 E0.38914
G1 X103.9 Y86.3 E1.28717
G1 X105 Y86.3 E1.34205
G1 X105 Y113.7 E2.70904
G1 X95 Y113.7 E3.20794
G1 X95 Y86.3 E4.57493
G1 X96.1 Y86.3 E4.62981
G1 X96.1 Y104.3 E5.52783
G0 F3600 X96.5 Y103.9
;TYPE:WALL-OUTER
G1 F1800 X103.5 Y103.9 E5.87707
G1 X103.5 Y85.9 E6.77509
G1 X105.4 Y85.9 E6.86988
G1 X105.4 Y114.1 E8.27678
G1 X94.6 Y114.1 E8.8156
G1 X94.6 Y85.9 E10.2225
G1 X96.5 Y85.9 E10.31729
G1 X96.5 Y103.9 E11.21532
G0 F3600 X96.7 Y103.9
G0 X96.7 Y104.4
G0 X95.71 Y104.69
;TYPE:SKIN
G1 F1800 X104.29 Y104.69 E11.64338
G1 X104.29 Y86.69 E12.5414
G1 X104.61 Y86.69 E12.55736
G1 X104.61 Y113.31 E13.88544
G1 X95.39 Y113.31 E14.34543
G1 X95.39 Y86.69 E15.67351
G1 X95.71 Y86.69 E15.68947
G1 X95.71 Y104.69 E16.58749
G0 F3600 X96.158 Y113.129
G1 F1800 X95.569 Y112.54 E16.62905
G0 F3600 X95.569 Y111.974
G1 F1800 X96.724 Y113.129 E16.71054
G0 F3600 X97.29 Y113.129
G1 F1800 X95.569 Y111.408 E16.83197
G0 F3600 X95.569 Y110.843
G1 F1800 X97.855 Y113.129 E16.99326
G0 F3600 X98.421 Y113.129
G1 F1800 X95.569 Y110.277 E17.19448
G0 F3600 X95.569 Y109.711
G1 F1800 X98.987 Y113.129 E17.43564
G0 F3600 X99.552 Y113.129
G1 F1800 X95.569 Y109.146 E17.71666
G0 F3600 X95.569 Y108.58
G1 F1800 X100.118 Y113.129 E18.03762
G0 F3600 X100.684 Y113.129
G1 F1800 X95.569 Y108.014 E18.39851
G0 F3600 X95.569 Y107.449
G1 F1800 X101.249 Y113.129 E18.79927
G0 F3600 X101.815 Y113.129
G1 F1800 X95.569 Y106.883 E19.23995
G0 F3600 X95.569 Y106.317
G1 F1800 X102.381 Y113.129 E19.72058
G0 F3600 X102.946 Y113.129
G1 F1800 X95.569 Y105.752 E20.24106
G0 F3600 X95.569 Y105.186
G1 F1800 X103.512 Y113.129 E20.80149
G0 F3600 X104.078 Y113.129
G1 F1800 X95.818 Y104.869 E21.38427
G0 F3600 X96.384 Y104.869
G1 F1800 X104.43 Y112.915 E21.95196
G0 F3600 X104.43 Y112.35
G1 F1800 X96.949 Y104.869 E22.47979
G0 F3600 X97.515 Y104.869
G1 F1800 X104.43 Y111.784 E22.96768
G0 F3600 X104.43 Y111.218
G1 F1800 X98.081 Y104.869 E23.41563
G0 F3600 X98.647 Y104.869
G1 F1800 X104.43 Y110.653 E23.82369
G0 F3600 X104.43 Y110.087
G1 F1800 X99.212 Y104.869 E24.19185
G0 F3600 X99.778 Y104.869
G1 F1800 X104.43 Y109.521 E24.52007
G0 F3600 X104.43 Y108.955
G1 F1800 X100.344 Y104.869 E24.80836
G0 F3600 X100.909 Y104.869
G1 F1800 X104.43 Y108.39 E25.05679
G0 F3600 X104.43 Y107.824
G1 F1800 X101.475 Y104.869 E25.26528
G0 F3600 X102.041 Y104.869
G1 F1800 X104.43 Y107.258 E25.43384
G0 F3600 X104.43 Y106.693
G1 F1800 X102.606 Y104.869 E25.56253
G0 F3600 X103.172 Y104.869
G1 F1800 X104.43 Y106.127 E25.65129
G0 F3600 X104.43 Y105.561
G1 F1800 X103.738 Y104.869 E25.70011
G0 F3600 X104.303 Y104.869
G1 F1800 X104.43 Y104.996 E25.70907
;MESH:NONMESH
G0 F3600 X96.03 Y104.37
G0 X96.1 Y104.3
;TIME_ELAPSED:26.747994
;LAYER:1
M140 S60
M106 S255
;MESH:switchHolder.stl
G0 F5400 X96.1 Y104.3 Z0.5
;TYPE:WALL-INNER
G1 F2700 X103.9 Y104.3 E25.9685
G1 X103.9 Y86.3 E26.56718
G1 X105 Y86.3 E26.60377
G1 X105 Y113.7 E27.5151
G1 X95 Y113.7 E27.8477
G1 X95 Y86.3 E28.75903
G1 X96.1 Y86.3 E28.79561
G1 X96.1 Y104.3 E29.3943
G0 F5400 X96.5 Y103.9
;TYPE:WALL-OUTER
G1 F1800 X103.5 Y103.9 E29.62712
G1 X103.5 Y85.9 E30.2258
G1 X105.4 Y85.9 E30.28899
G1 X105.4 Y114.1 E31.22693
G1 X94.6 Y114.1 E31.58614
G1 X94.6 Y85.9 E32.52407
G1 X96.5 Y85.9 E32.58727
G1 X96.5 Y103.9 E33.18595
G0 F5400 X96.7 Y103.9
G0 X96.7 Y104.4
G0 X95.71 Y104.69
;TYPE:SKIN
G1 F1800 X104.29 Y104.69 E33.47132
G1 X104.29 Y86.69 E34.07001
G1 X104.61 Y86.69 E34.08065
G1 X104.61 Y113.31 E34.96603
G1 X95.39 Y113.31 E35.27269
G1 X95.39 Y86.69 E36.15808
G1 X95.71 Y86.69 E36.16872
G1 X95.71 Y104.69 E36.7674
G0 F5400 X95.57 Y105.247
G1 F1800 X95.948 Y104.869 E36.78518
G0 F5400 X96.514 Y104.869
G1 F1800 X95.57 Y105.813 E36.82959
G0 F5400 X95.57 Y106.379
G1 F1800 X97.08 Y104.869 E36.90061
G0 F5400 X97.645 Y104.869
G1 F1800 X95.57 Y106.944 E36.99821
G0 F5400 X95.57 Y107.51
G1 F1800 X98.211 Y104.869 E37.12244
G0 F5400 X98.777 Y104.869
G1 F1800 X95.57 Y108.076 E37.27329
G0 F5400 X95.57 Y108.642
G1 F1800 X99.342 Y104.869 E37.45073
G0 F5400 X99.908 Y104.869
G1 F1800 X95.57 Y109.207 E37.65478
G0 F5400 X95.57 Y109.773
G1 F1800 X100.474 Y104.869 E37.88545
G0 F5400 X101.039 Y104.869
G1 F1800 X95.57 Y110.339 E38.14272
G0 F5400 X95.57 Y110.904
G1 F1800 X101.605 Y104.869 E38.42658
G0 F5400 X102.171 Y104.869
G1 F1800 X95.57 Y111.47 E38.73707
G0 F5400 X95.57 Y112.036
G1 F1800 X102.736 Y104.869 E39.07416
G0 F5400 X103.302 Y104.869
G1 F1800 X95.57 Y112.601 E39.43785
G0 F5400 X95.608 Y113.129
G1 F1800 X103.868 Y104.869 E39.82638
G0 F5400 X104.429 Y104.873
G1 F1800 X96.174 Y113.129 E40.21469
G0 F5400 X96.739 Y113.129
G1 F1800 X104.429 Y105.439 E40.57641
G0 F5400 X104.429 Y106.005
G1 F1800 X97.305 Y113.129 E40.9115
G0 F5400 X97.871 Y113.129
G1 F1800 X104.429 Y106.57 E41.21999
G0 F5400 X104.429 Y107.136
G1 F1800 X98.437 Y113.129 E41.50186
G0 F5400 X99.002 Y113.129
G1 F1800 X104.429 Y107.702 E41.75713
G0 F5400 X104.429 Y108.267
G1 F1800 X99.568 Y113.129 E41.9858
G0 F5400 X100.134 Y113.129
G1 F1800 X104.429 Y108.833 E42.18785
G0 F5400 X104.429 Y109.399
G1 F1800 X100.699 Y113.129 E42.36329
G0 F5400 X101.265 Y113.129
G1 F1800 X104.429 Y109.965 E42.51212
G0 F5400 X104.429 Y110.53
G1 F1800 X101.831 Y113.129 E42.63434
G0 F5400 X102.396 Y113.129
G1 F1800 X104.429 Y111.096 E42.72997
G0 F5400 X104.429 Y111.662
G1 F1800 X102.962 Y113.129 E42.79897
G0 F5400 X103.528 Y113.129
G1 F1800 X104.429 Y112.227 E42.84138
G0 F5400 X104.429 Y112.793
G1 F1800 X104.093 Y113.129 E42.85718
;MESH:NONMESH
G0 F5400 X96.03 Y104.37
G0 X96.1 Y104.3
;TIME_ELAPSED:43.698009
;LAYER:2
;MESH:switchHolder.stl
G0 F7200 X96.1 Y104.3 Z0.7
;TYPE:WALL-INNER
G1 F3600 X103.9 Y104.3 E43.11661
G1 X103.9 Y86.3 E43.71529
G1 X105 Y86.3 E43.75188
G1 X105 Y113.7 E44.66321
G1 X95 Y113.7 E44.99581
G1 X95 Y86.3 E45.90714
G1 X96.1 Y86.3 E45.94372
G1 X96.1 Y104.3 E46.5424
G0 F7200 X96.5 Y103.9
;TYPE:WALL-OUTER
G1 F1800 X103.5 Y103.9 E46.77522
G1 X103.5 Y85.9 E47.37391
G1 X105.4 Y85.9 E47.4371
G1 X105.4 Y114.1 E48.37504
G1 X94.6 Y114.1 E48.73425
G1 X94.6 Y85.9 E49.67218
G1 X96.5 Y85.9 E49.73538
G1 X96.5 Y103.9 E50.33406
G0 F7200 X96.7 Y103.9
G0 X96.7 Y104.4
G0 X95.71 Y104.69
;TYPE:SKIN
G1 F1800 X104.29 Y104.69 E50.61943
G1 X104.29 Y86.69 E51.21811
G1 X104.61 Y86.69 E51.22876
G1 X104.61 Y113.31 E52.11414
G1 X95.39 Y113.31 E52.4208
G1 X95.39 Y86.69 E53.30618
G1 X95.71 Y86.69 E53.31683
G1 X95.71 Y104.69 E53.91551
G0 F7200 X96.158 Y113.129
G1 F1800 X95.569 Y112.54 E53.94322
G0 F7200 X95.569 Y111.974
G1 F1800 X96.724 Y113.129 E53.99754
G0 F7200 X97.29 Y113.129
G1 F1800 X95.569 Y111.408 E54.07849
G0 F7200 X95.569 Y110.843
G1 F1800 X97.855 Y113.129 E54.18602
G0 F7200 X98.421 Y113.129
G1 F1800 X95.569 Y110.277 E54.32017
G0 F7200 X95.569 Y109.711
G1 F1800 X98.987 Y113.129 E54.48094
G0 F7200 X99.552 Y113.129
G1 F1800 X95.569 Y109.146 E54.66829
G0 F7200 X95.569 Y108.58
G1 F1800 X100.118 Y113.129 E54.88226
G0 F7200 X100.684 Y113.129
G1 F1800 X95.569 Y108.014 E55.12285
G0 F7200 X95.569 Y107.449
G1 F1800 X101.249 Y113.129 E55.39002
G0 F7200 X101.815 Y113.129
G1 F1800 X95.569 Y106.883 E55.68382
G0 F7200 X95.569 Y106.317
G1 F1800 X102.381 Y113.129 E56.00423
G0 F7200 X102.946 Y113.129
G1 F1800 X95.569 Y105.752 E56.35122
G0 F7200 X95.569 Y105.186
G1 F1800 X103.512 Y113.129 E56.72484
G0 F7200 X104.078 Y113.129
G1 F1800 X95.818 Y104.869 E57.11336
G0 F7200 X96.384 Y104.869
G1 F1800 X104.43 Y112.915 E57.49182
G0 F7200 X104.43 Y112.35
G1 F1800 X96.949 Y104.869 E57.84371
G0 F7200 X97.515 Y104.869
G1 F1800 X104.43 Y111.784 E58.16897
G0 F7200 X104.43 Y111.218
G1 F1800 X98.081 Y104.869 E58.4676
G0 F7200 X98.647 Y104.869
G1 F1800 X104.43 Y110.653 E58.73964
G0 F7200 X104.43 Y110.087
G1 F1800 X99.212 Y104.869 E58.98508
G0 F7200 X99.778 Y104.869
G1 F1800 X104.43 Y109.521 E59.2039
G0 F7200 X104.43 Y108.955
G1 F1800 X100.344 Y104.869 E59.39609
G0 F7200 X100.909 Y104.869
G1 F1800 X104.43 Y108.39 E59.56171
G0 F7200 X104.43 Y107.824
G1 F1800 X101.475 Y104.869 E59.7007
G0 F7200 X102.041 Y104.869
G1 F1800 X104.43 Y107.258 E59.81307
G0 F7200 X104.43 Y106.693
G1 F1800 X102.606 Y104.869 E59.89887
G0 F7200 X103.172 Y104.869
G1 F1800 X104.43 Y106.127 E59.95804
G0 F7200 X104.43 Y105.561
G1 F1800 X103.738 Y104.869 E59.99059
G0 F7200 X104.303 Y104.869
G1 F1800 X104.43 Y104.996 E59.99656
;MESH:NONMESH
G0 F7200 X96.03 Y104.37
G0 X96.1 Y104.3
;TIME_ELAPSED:60.096024
;LAYER:3
;MESH:switchHolder.stl
G0 X96.1 Y104.3 Z0.9
;TYPE:WALL-INNER
G1 F3600 X103.9 Y104.3 E60.25599
G1 X103.9 Y86.3 E60.85467
G1 X105 Y86.3 E60.89126
G1 X105 Y113.7 E61.80259
G1 X95 Y113.7 E62.13519
G1 X95 Y86.3 E63.04652
G1 X96.1 Y86.3 E63.0831
G1 X96.1 Y104.3 E63.68179
G0 F7200 X96.5 Y103.9
;TYPE:WALL-OUTER
G1 F1800 X103.5 Y103.9 E63.91461
G1 X103.5 Y85.9 E64.51329
G1 X105.4 Y85.9 E64.57648
G1 X105.4 Y114.1 E65.51442
G1 X94.6 Y114.1 E65.87363
G1 X94.6 Y85.9 E66.81156
G1 X96.5 Y85.9 E66.87476
G1 X96.5 Y103.9 E67.47344
G0 F7200 X96.7 Y103.9
G0 X96.7 Y104.4
G0 X95.71 Y104.69
;TYPE:SKIN
G1 F1800 X104.29 Y104.69 E67.75881
G1 X104.29 Y86.69 E68.3575
G1 X104.61 Y86.69 E68.36814
G1 X104.61 Y113.31 E69.25352
G1 X95.39 Y113.31 E69.56018
G1 X95.39 Y86.69 E70.44557
G1 X95.71 Y86.69 E70.45621
G1 X95.71 Y104.69 E71.05489
G0 F7200 X95.57 Y105.247
G1 F1800 X95.948 Y104.869 E71.07267
G0 F7200 X96.514 Y104.869
G1 F1800 X95.57 Y105.813 E71.11708
G0 F7200 X95.57 Y106.379
G1 F1800 X97.08 Y104.869 E71.1881
G0 F7200 X97.645 Y104.869
G1 F1800 X95.57 Y106.944 E71.2857
G0 F7200 X95.57 Y107.51
G1 F1800 X98.211 Y104.869 E71.40993
G0 F7200 X98.777 Y104.869
G1 F1800 X95.57 Y108.076 E71.56077
G0 F7200 X95.57 Y108.642
G1 F1800 X99.342 Y104.869 E71.73822
G0 F7200 X99.908 Y104.869
G1 F1800 X95.57 Y109.207 E71.94227
G0 F7200 X95.57 Y109.773
G1 F1800 X100.474 Y104.869 E72.17294
G0 F7200 X101.039 Y104.869
G1 F1800 X95.57 Y110.339 E72.43021
G0 F7200 X95.57 Y110.904
G1 F1800 X101.605 Y104.869 E72.71407
G0 F7200 X102.171 Y104.869
G1 F1800 X95.57 Y111.47 E73.02456
G0 F7200 X95.57 Y112.036
G1 F1800 X102.736 Y104.869 E73.36165
G0 F7200 X103.302 Y104.869
G1 F1800 X95.57 Y112.601 E73.72534
G0 F7200 X95.608 Y113.129
G1 F1800 X103.868 Y104.869 E74.11387
G0 F7200 X104.429 Y104.873
G1 F1800 X96.174 Y113.129 E74.50218
G0 F7200 X96.739 Y113.129
G1 F1800 X104.429 Y105.439 E74.8639
G0 F7200 X104.429 Y106.005
G1 F1800 X97.305 Y113.129 E75.19899
G0 F7200 X97.871 Y113.129
G1 F1800 X104.429 Y106.57 E75.50748
G0 F7200 X104.429 Y107.136
G1 F1800 X98.437 Y113.129 E75.78935
G0 F7200 X99.002 Y113.129
G1 F1800 X104.429 Y107.702 E76.04462
G0 F7200 X104.429 Y108.267
G1 F1800 X99.568 Y113.129 E76.27329
G0 F7200 X100.134 Y113.129
G1 F1800 X104.429 Y108.833 E76.47533
G0 F7200 X104.429 Y109.399
G1 F1800 X100.699 Y113.129 E76.65078
G0 F7200 X101.265 Y113.129
G1 F1800 X104.429 Y109.965 E76.79961
G0 F7200 X104.429 Y110.53
G1 F1800 X101.831 Y113.129 E76.92183
G0 F7200 X102.396 Y113.129
G1 F1800 X104.429 Y111.096 E77.01746
G0 F7200 X104.429 Y111.662
G1 F1800 X102.962 Y113.129 E77.08646
G0 F7200 X103.528 Y113.129
G1 F1800 X104.429 Y112.227 E77.12887
G0 F7200 X104.429 Y112.793
G1 F1800 X104.093 Y113.129 E77.14467
;MESH:NONMESH
G0 F7200 X96.072 Y104.328
G0 X95.159 Y93.526
;TIME_ELAPSED:76.555612
;LAYER:4
;MESH:switchHolder.stl
G0 X95.159 Y93.526 Z1.1
;TYPE:FILL
G1 F3600 X95.938 Y92.746 E77.18134
G1 X96.008 Y92.676
G0 F7200 X96 Y92.676
G0 X95.159 Y95.159
G1 F3600 X95.94 Y95.94 E77.21807
G1 X96.01 Y96.01
G0 F7200 X96 Y96.01
G0 X95.939 Y104.059
G1 F3600 X95.16 Y104.839 E77.25474
G1 X95.09 Y104.909
G0 F7200 X95.1 Y104.909
G0 X95.16 Y106.474
G1 F3600 X102.225 Y113.538 E77.58703
G1 X102.295 Y113.608
G0 F7200 X102.295 Y113.6
G0 X97.773 Y113.539
G1 F3600 X104.839 Y106.474 E77.91937
G1 X104.909 Y106.404
G0 F7200 X104.9 Y106.404
G0 X104.839 Y104.839
G1 F3600 X104.059 Y104.059 E77.95606
G1 X103.989 Y103.989
G0 F7200 X104 Y103.989
G0 X104.059 Y95.94
G1 F3600 X104.839 Y95.16 E77.99275
G1 X104.909 Y95.09
G0 F7200 X104.9 Y95.09
G0 X104.839 Y93.525
G1 F3600 X104.059 Y92.745 E78.02944
G1 X103.989 Y92.675
G0 F7200 X104 Y92.675
G0 X103.928 Y104.328
G0 X96.03 Y104.37
G0 X96.1 Y104.3
;TYPE:WALL-INNER
G1 F3600 X103.9 Y104.3 E78.28886
G1 X103.9 Y86.3 E78.88755
G1 X105 Y86.3 E78.92413
G1 X105 Y113.7 E79.83546
G1 X95 Y113.7 E80.16806
G1 X95 Y86.3 E81.07939
G1 X96.1 Y86.3 E81.11598
G1 X96.1 Y104.3 E81.71466
G0 F7200 X96.5 Y103.9
;TYPE:WALL-OUTER
G1 F1800 X103.5 Y103.9 E81.94748
G1 X103.5 Y85.9 E82.54616
G1 X105.4 Y85.9 E82.60936
G1 X105.4 Y114.1 E83.54729
G1 X94.6 Y114.1 E83.9065
G1 X94.6 Y85.9 E84.84444
G1 X96.5 Y85.9 E84.90763
G1 X96.5 Y103.9 E85.50631
G0 F7200 X96.7 Y103.9
G0 X96.7 Y104.4
G0 X96.072 Y104.328
G0 X95.71 Y99.615
;TYPE:SKIN
G1 F1800 X95.39 Y99.615 E85.51696
G1 X95.39 Y96.985 E85.60443
G1 X95.71 Y96.986 E85.61507
G1 X95.71 Y99.615 E85.70252
G0 F7200 X96.072 Y104.328
G0 X103.928 Y104.328
G0 X104.29 Y99.615
G1 F1800 X104.29 Y96.985 E85.78999
G1 X104.61 Y96.986 E85.80063
G1 X104.61 Y99.615 E85.88807
G1 X104.29 Y99.615 E85.89872
G0 F7200 X104.29 Y90.414
G1 F1800 X104.29 Y87.785 E85.98616
G1 X104.61 Y87.785 E85.9968
G1 X104.61 Y90.415 E86.08427
G1 X104.29 Y90.414 E86.09492
G0 F7200 X103.928 Y104.328
G0 X96.072 Y104.328
G0 X95.71 Y90.414
G1 F1800 X95.39 Y90.414 E86.10556
G1 X95.39 Y87.786 E86.19297
G1 X95.71 Y87.785 E86.20361
G1 X95.71 Y90.414 E86.29105
G0 F7200 X95.7 Y90.414
;MESH:NONMESH
G0 X95.159 Y93.526
;TIME_ELAPSED:85.177946
;LAYER:5
;MESH:switchHolder.stl
G0 X95.159 Y93.526 Z1.3
;TYPE:FILL
G1 F3600 X95.939 Y92.746 E86.32774
G1 X96.009 Y92.676
G0 F7200 X96 Y92.676
G0 X95.159 Y95.159
G1 F3600 X95.939 Y95.939 E86.36443
G1 X96.009 Y96.009
G0 F7200 X96 Y96.009
G0 X95.939 Y104.059
G1 F3600 X95.16 Y104.839 E86.4011
G1 X95.09 Y104.909
G0 F7200 X95.1 Y104.909
G0 X95.16 Y106.474
G1 F3600 X102.225 Y113.538 E86.73339
G1 X102.295 Y113.608
G0 F7200 X102.295 Y113.6
G0 X97.773 Y113.539
G1 F3600 X104.839 Y106.473 E87.06575
G1 X104.909 Y106.403
G0 F7200 X104.9 Y106.403
G0 X104.839 Y104.839
G1 F3600 X104.059 Y104.059 E87.10244
G1 X103.989 Y103.989
G0 F7200 X104 Y103.989
G0 X104.059 Y95.94
G1 F3600 X104.839 Y95.16 E87.13913
G1 X104.909 Y95.09
G0 F7200 X104.9 Y95.09
G0 X104.839 Y93.525
G1 F3600 X104.059 Y92.745 E87.17582
G1 X103.989 Y92.675
G0 F7200 X104 Y92.675
G0 X103.928 Y104.328
G0 X96.03 Y104.37
G0 X96.1 Y104.3
;TYPE:WALL-INNER
G1 F3600 X103.9 Y104.3 E87.43525
G1 X103.9 Y86.3 E88.03393
G1 X105 Y86.3 E88.07052
G1 X105 Y113.7 E88.98184
G1 X95 Y113.7 E89.31444
G1 X95 Y86.3 E90.22577
G1 X96.1 Y86.3 E90.26236
G1 X96.1 Y104.3 E90.86104
G0 F7200 X96.5 Y103.9
;TYPE:WALL-OUTER
G1 F1800 X103.5 Y103.9 E91.09386
G1 X103.5 Y85.9 E91.69254
G1 X105.4 Y85.9 E91.75574
G1 X105.4 Y114.1 E92.69367
G1 X94.6 Y114.1 E93.05288
G1 X94.6 Y85.9 E93.99082
G1 X96.5 Y85.9 E94.05401
G1 X96.5 Y103.9 E94.6527
G0 F7200 X96.7 Y103.9
G0 X96.7 Y104.4
G0 X96.072 Y104.328
G0 X95.71 Y99.878
;TYPE:SKIN
G1 F1800 X95.39 Y99.878 E94.66334
G1 X95.39 Y96.723 E94.76828
G1 X95.71 Y96.723 E94.77892
G1 X95.71 Y99.878 E94.88385
G0 F7200 X96.072 Y104.328
G0 X103.928 Y104.328
G0 X104.29 Y99.878
G1 F1800 X104.29 Y96.722 E94.98882
G1 X104.61 Y96.722 E94.99947
G1 X104.61 Y99.878 E95.10444
G1 X104.29 Y99.878 E95.11508
G0 F7200 X104.29 Y90.677
G1 F1800 X104.29 Y87.522 E95.22001
G1 X104.61 Y87.522 E95.23066
G1 X104.61 Y90.678 E95.33563
G1 X104.29 Y90.677 E95.34627
G0 F7200 X103.928 Y104.328
G0 X96.072 Y104.328
G0 X95.71 Y90.677
G1 F1800 X95.39 Y90.678 E95.35691
G1 X95.39 Y87.523 E95.46185
G1 X95.71 Y87.522 E95.47249
G1 X95.71 Y90.677 E95.57743
